;Generated with Cura_SteamEngine 15.01
; Default start code
;G28 ; Home extruder
;G92 X-100 Y-100
;G1 Z2 F2000
;G92 Z0
M107 ; Turn off fan

G90 ; Absolute positioning
M82 ; Extruder in absolute mode
; Activate all used extruder
;M104 T0 S183
G92 E0 ; Reset extruder position
; Wait for all used extruders to reach temperature
;M109 T0 S183
m209 s1
;Layer count: 13
;LAYER:0
M107
G0 F10200 X19.995 Y-0.146 Z0.300
;TYPE:SKIRT
G1 F1380 X19.999 Y-0.042 E0.00477
G1 X19.979 Y0.862 E0.04616
G1 X19.920 Y1.764 E0.08755
G1 X19.817 Y2.679 E0.12971
G1 X19.671 Y3.602 E0.17249
G1 X19.476 Y4.538 E0.21627
G1 X19.235 Y5.467 E0.26021
G1 X18.947 Y6.398 E0.30482
G1 X18.606 Y7.327 E0.35013
G1 X18.220 Y8.243 E0.39564
G1 X17.780 Y9.153 E0.44192
G1 X17.293 Y10.041 E0.48829
G1 X16.761 Y10.908 E0.53486
G1 X16.178 Y11.755 E0.58194
G1 X15.548 Y12.576 E0.62932
G1 X14.878 Y13.361 E0.67657
G1 X14.170 Y14.111 E0.72379
G1 X13.421 Y14.824 E0.77114
G1 X12.635 Y15.501 E0.81863
G1 X11.815 Y16.133 E0.86603
G1 X10.974 Y16.716 E0.91289
G1 X10.111 Y17.252 E0.95940
G1 X9.222 Y17.744 E1.00592
G1 X8.313 Y18.188 E1.05224
G1 X7.396 Y18.579 E1.09788
G1 X6.469 Y18.922 E1.14313
G1 X5.540 Y19.213 E1.18770
G1 X4.608 Y19.460 E1.23185
G1 X3.673 Y19.657 E1.27559
G1 X2.752 Y19.806 E1.31831
G1 X1.834 Y19.913 E1.36062
G1 X0.926 Y19.976 E1.40230
G1 X0.146 Y19.995 E1.43802
G1 X0.042 Y19.999 E1.44278
G1 X-0.862 Y19.979 E1.48418
G1 X-1.764 Y19.920 E1.52557
G1 X-2.679 Y19.817 E1.56773
G1 X-3.602 Y19.671 E1.61051
G1 X-4.538 Y19.476 E1.65428
G1 X-5.467 Y19.235 E1.69823
G1 X-6.398 Y18.947 E1.74284
G1 X-7.327 Y18.606 E1.78815
G1 X-8.243 Y18.220 E1.83366
G1 X-9.153 Y17.780 E1.87994
G1 X-10.041 Y17.293 E1.92631
G1 X-10.908 Y16.761 E1.97288
G1 X-11.755 Y16.178 E2.01996
G1 X-12.576 Y15.548 E2.06734
G1 X-13.361 Y14.878 E2.11459
G1 X-14.111 Y14.170 E2.16181
G1 X-14.824 Y13.421 E2.20916
G1 X-15.501 Y12.635 E2.25665
G1 X-16.133 Y11.815 E2.30405
G1 X-16.716 Y10.974 E2.35090
G1 X-17.252 Y10.111 E2.39742
G1 X-17.744 Y9.222 E2.44394
G1 X-18.188 Y8.313 E2.49025
G1 X-18.579 Y7.396 E2.53590
G1 X-18.922 Y6.469 E2.58115
G1 X-19.213 Y5.540 E2.62572
G1 X-19.460 Y4.608 E2.66986
G1 X-19.657 Y3.673 E2.71361
G1 X-19.806 Y2.752 E2.75633
G1 X-19.913 Y1.834 E2.79864
G1 X-19.976 Y0.926 E2.84032
G1 X-19.995 Y0.146 E2.87604
G1 X-19.999 Y0.042 E2.88080
G1 X-19.979 Y-0.862 E2.92220
G1 X-19.920 Y-1.764 E2.96359
G1 X-19.817 Y-2.679 E3.00574
G1 X-19.671 Y-3.602 E3.04853
G1 X-19.476 Y-4.538 E3.09230
G1 X-19.235 Y-5.467 E3.13624
G1 X-18.947 Y-6.398 E3.18086
G1 X-18.606 Y-7.327 E3.22617
G1 X-18.220 Y-8.243 E3.27168
G1 X-17.780 Y-9.153 E3.31796
G1 X-17.293 Y-10.041 E3.36433
G1 X-16.761 Y-10.908 E3.41090
G1 X-16.178 Y-11.755 E3.45798
G1 X-15.548 Y-12.576 E3.50536
G1 X-14.878 Y-13.361 E3.55261
G1 X-14.170 Y-14.111 E3.59983
G1 X-13.421 Y-14.824 E3.64718
G1 X-12.635 Y-15.501 E3.69467
G1 X-11.815 Y-16.133 E3.74207
G1 X-10.974 Y-16.716 E3.78892
G1 X-10.111 Y-17.252 E3.83544
G1 X-9.222 Y-17.744 E3.88196
G1 X-8.313 Y-18.188 E3.92827
G1 X-7.396 Y-18.579 E3.97391
G1 X-6.469 Y-18.922 E4.01917
G1 X-5.540 Y-19.213 E4.06374
G1 X-4.608 Y-19.460 E4.10788
G1 X-3.673 Y-19.657 E4.15163
G1 X-2.752 Y-19.806 E4.19435
G1 X-1.834 Y-19.913 E4.23666
G1 X-0.926 Y-19.976 E4.27833
G1 X-0.146 Y-19.995 E4.31406
G1 X-0.042 Y-19.999 E4.31882
G1 X0.862 Y-19.979 E4.36022
G1 X1.764 Y-19.920 E4.40161
G1 X2.679 Y-19.817 E4.44376
G1 X3.602 Y-19.671 E4.48655
G1 X4.538 Y-19.476 E4.53032
G1 X5.467 Y-19.235 E4.57426
G1 X6.398 Y-18.947 E4.61888
G1 X7.327 Y-18.606 E4.66419
G1 X8.243 Y-18.220 E4.70970
G1 X9.153 Y-17.780 E4.75598
G1 X10.041 Y-17.293 E4.80235
G1 X10.908 Y-16.761 E4.84892
G1 X11.755 Y-16.178 E4.89600
G1 X12.576 Y-15.548 E4.94338
G1 X13.361 Y-14.878 E4.99063
G1 X14.111 Y-14.170 E5.03785
G1 X14.824 Y-13.421 E5.08520
G1 X15.501 Y-12.635 E5.13269
G1 X16.133 Y-11.815 E5.18009
G1 X16.716 Y-10.974 E5.22694
G1 X17.252 Y-10.111 E5.27345
G1 X17.744 Y-9.222 E5.31997
G1 X18.188 Y-8.313 E5.36629
G1 X18.579 Y-7.396 E5.41193
G1 X18.922 Y-6.469 E5.45719
G1 X19.213 Y-5.540 E5.50176
G1 X19.460 Y-4.608 E5.54590
G1 X19.657 Y-3.673 E5.58965
G1 X19.806 Y-2.752 E5.63237
G1 X19.913 Y-1.834 E5.67468
G1 X19.976 Y-0.926 E5.71635
G1 X19.995 Y-0.146 E5.75207
G0 F10200 X19.594 Y-0.203
G1 F1380 X19.600 Y-0.038 E5.75963
G1 X19.581 Y0.844 E5.80003
G1 X19.522 Y1.729 E5.84063
G1 X19.422 Y2.625 E5.88191
G1 X19.278 Y3.530 E5.92387
G1 X19.088 Y4.447 E5.96674
G1 X18.851 Y5.358 E6.00984
G1 X18.569 Y6.271 E6.05359
G1 X18.235 Y7.180 E6.09793
G1 X17.856 Y8.079 E6.14260
G1 X17.425 Y8.970 E6.18791
G1 X16.948 Y9.840 E6.23334
G1 X16.426 Y10.690 E6.27901
G1 X15.855 Y11.521 E6.32517
G1 X15.238 Y12.325 E6.37157
G1 X14.581 Y13.094 E6.41788
G1 X13.887 Y13.829 E6.46416
G1 X13.153 Y14.528 E6.51057
G1 X12.383 Y15.191 E6.55709
G1 X11.580 Y15.811 E6.60354
G1 X10.755 Y16.382 E6.64947
G1 X9.909 Y16.908 E6.69508
G1 X9.038 Y17.390 E6.74066
G1 X8.147 Y17.825 E6.78606
G1 X7.249 Y18.208 E6.83075
G1 X6.340 Y18.545 E6.87514
G1 X5.429 Y18.830 E6.91884
G1 X4.516 Y19.071 E6.96208
G1 X3.600 Y19.264 E7.00494
G1 X2.697 Y19.411 E7.04682
G1 X1.797 Y19.516 E7.08831
G1 X0.908 Y19.577 E7.12911
G1 X0.173 Y19.595 E7.16277
G1 X0.038 Y19.600 E7.16895
G1 X-0.844 Y19.581 E7.20934
G1 X-1.729 Y19.522 E7.24995
G1 X-2.625 Y19.422 E7.29123
G1 X-3.530 Y19.278 E7.33319
G1 X-4.447 Y19.088 E7.37606
G1 X-5.358 Y18.851 E7.41916
G1 X-6.271 Y18.569 E7.46291
G1 X-7.180 Y18.235 E7.50725
G1 X-8.079 Y17.856 E7.55192
G1 X-8.970 Y17.425 E7.59723
G1 X-9.840 Y16.948 E7.64266
G1 X-10.690 Y16.426 E7.68833
G1 X-11.521 Y15.855 E7.73449
G1 X-12.325 Y15.238 E7.78089
G1 X-13.094 Y14.581 E7.82720
G1 X-13.829 Y13.887 E7.87348
G1 X-14.528 Y13.153 E7.91989
G1 X-15.191 Y12.383 E7.96641
G1 X-15.811 Y11.580 E8.01286
G1 X-16.382 Y10.755 E8.05879
G1 X-16.908 Y9.909 E8.10440
G1 X-17.390 Y9.038 E8.14998
G1 X-17.825 Y8.147 E8.19538
G1 X-18.208 Y7.249 E8.24007
G1 X-18.545 Y6.340 E8.28446
G1 X-18.830 Y5.429 E8.32816
G1 X-19.071 Y4.516 E8.37139
G1 X-19.264 Y3.600 E8.41425
G1 X-19.411 Y2.697 E8.45614
G1 X-19.516 Y1.797 E8.49763
G1 X-19.577 Y0.908 E8.53842
G1 X-19.596 Y0.136 E8.57378
G1 X-19.600 Y0.038 E8.57827
G1 X-19.581 Y-0.844 E8.61866
G1 X-19.522 Y-1.729 E8.65927
G1 X-19.422 Y-2.625 E8.70055
G1 X-19.278 Y-3.530 E8.74250
G1 X-19.088 Y-4.447 E8.78538
G1 X-18.851 Y-5.358 E8.82848
G1 X-18.569 Y-6.271 E8.87223
G1 X-18.235 Y-7.180 E8.91657
G1 X-17.856 Y-8.079 E8.96123
G1 X-17.425 Y-8.970 E9.00655
G1 X-16.948 Y-9.840 E9.05198
G1 X-16.426 Y-10.690 E9.09765
G1 X-15.855 Y-11.521 E9.14381
G1 X-15.238 Y-12.325 E9.19021
G1 X-14.581 Y-13.094 E9.23652
G1 X-13.887 Y-13.829 E9.28280
G1 X-13.153 Y-14.528 E9.32921
G1 X-12.383 Y-15.191 E9.37573
G1 X-11.580 Y-15.811 E9.42218
G1 X-10.755 Y-16.382 E9.46811
G1 X-9.909 Y-16.908 E9.51372
G1 X-9.038 Y-17.390 E9.55930
G1 X-8.147 Y-17.825 E9.60469
G1 X-7.249 Y-18.208 E9.64939
G1 X-6.340 Y-18.545 E9.69378
G1 X-5.429 Y-18.830 E9.73748
G1 X-4.516 Y-19.071 E9.78071
G1 X-3.600 Y-19.264 E9.82357
G1 X-2.697 Y-19.411 E9.86546
G1 X-1.797 Y-19.516 E9.90695
G1 X-0.908 Y-19.577 E9.94774
G1 X-0.173 Y-19.595 E9.98140
G1 X-0.038 Y-19.600 E9.98759
G1 X0.844 Y-19.581 E10.02798
G1 X1.729 Y-19.522 E10.06859
G1 X2.625 Y-19.422 E10.10987
G1 X3.530 Y-19.278 E10.15182
G1 X4.447 Y-19.088 E10.19470
G1 X5.358 Y-18.851 E10.23780
G1 X6.271 Y-18.569 E10.28155
G1 X7.180 Y-18.235 E10.32588
G1 X8.079 Y-17.856 E10.37055
G1 X8.970 Y-17.425 E10.41587
G1 X9.840 Y-16.948 E10.46130
G1 X10.690 Y-16.426 E10.50696
G1 X11.521 Y-15.855 E10.55313
G1 X12.325 Y-15.238 E10.59953
G1 X13.094 Y-14.581 E10.64584
G1 X13.829 Y-13.887 E10.69212
G1 X14.528 Y-13.153 E10.73852
G1 X15.191 Y-12.383 E10.78505
G1 X15.811 Y-11.580 E10.83149
G1 X16.382 Y-10.755 E10.87743
G1 X16.908 Y-9.909 E10.92304
G1 X17.390 Y-9.038 E10.96862
G1 X17.825 Y-8.147 E11.01401
G1 X18.208 Y-7.249 E11.05871
G1 X18.545 Y-6.340 E11.10310
G1 X18.830 Y-5.429 E11.14680
G1 X19.071 Y-4.516 E11.19003
G1 X19.264 Y-3.600 E11.23289
G1 X19.411 Y-2.697 E11.27478
G1 X19.516 Y-1.797 E11.31626
G1 X19.577 Y-0.908 E11.35706
G1 X19.594 Y-0.203 E11.38935
G0 F10200 X19.196 Y-0.150
G1 F1380 X19.201 Y-0.035 E11.39462
G1 X19.182 Y0.827 E11.43409
G1 X19.125 Y1.694 E11.47388
G1 X19.026 Y2.572 E11.51433
G1 X18.885 Y3.459 E11.55545
G1 X18.699 Y4.356 E11.59739
G1 X18.467 Y5.249 E11.63963
G1 X18.191 Y6.143 E11.68247
G1 X17.864 Y7.034 E11.72593
G1 X17.492 Y7.914 E11.76967
G1 X17.071 Y8.788 E11.81408
G1 X16.603 Y9.640 E11.85859
G1 X16.091 Y10.473 E11.90336
G1 X15.532 Y11.286 E11.94853
G1 X14.928 Y12.074 E11.99398
G1 X14.284 Y12.827 E12.03935
G1 X13.604 Y13.547 E12.08469
G1 X12.885 Y14.233 E12.13019
G1 X12.131 Y14.882 E12.17574
G1 X11.344 Y15.489 E12.22124
G1 X10.536 Y16.049 E12.26625
G1 X9.707 Y16.564 E12.31094
G1 X8.854 Y17.036 E12.35557
G1 X7.981 Y17.462 E12.40004
G1 X7.101 Y17.837 E12.44384
G1 X6.211 Y18.167 E12.48730
G1 X5.319 Y18.446 E12.53009
G1 X4.424 Y18.683 E12.57248
G1 X3.526 Y18.872 E12.61449
G1 X2.642 Y19.016 E12.65550
G1 X1.760 Y19.118 E12.69615
G1 X0.889 Y19.179 E12.73613
G1 X0.150 Y19.196 E12.76997
G1 X0.035 Y19.201 E12.77524
G1 X-0.827 Y19.182 E12.81472
G1 X-1.694 Y19.125 E12.85450
G1 X-2.572 Y19.026 E12.89495
G1 X-3.459 Y18.885 E12.93607
G1 X-4.356 Y18.699 E12.97801
G1 X-5.249 Y18.467 E13.02026
G1 X-6.143 Y18.191 E13.06309
G1 X-7.034 Y17.864 E13.10655
G1 X-7.914 Y17.492 E13.15029
G1 X-8.788 Y17.071 E13.19471
G1 X-9.640 Y16.603 E13.23921
G1 X-10.473 Y16.091 E13.28398
G1 X-11.286 Y15.532 E13.32915
G1 X-12.074 Y14.928 E13.37461
G1 X-12.827 Y14.284 E13.41997
G1 X-13.547 Y13.604 E13.46531
G1 X-14.233 Y12.885 E13.51081
G1 X-14.882 Y12.131 E13.55636
G1 X-15.489 Y11.344 E13.60187
G1 X-16.049 Y10.536 E13.64688
G1 X-16.564 Y9.707 E13.69156
G1 X-17.036 Y8.854 E13.73619
G1 X-17.462 Y7.981 E13.78067
G1 X-17.837 Y7.101 E13.82446
G1 X-18.167 Y6.211 E13.86792
G1 X-18.446 Y5.319 E13.91071
G1 X-18.683 Y4.424 E13.95310
G1 X-18.872 Y3.526 E13.99512
G1 X-19.016 Y2.642 E14.03612
G1 X-19.118 Y1.760 E14.07677
G1 X-19.179 Y0.889 E14.11675
G1 X-19.197 Y0.127 E14.15165
G1 X-19.201 Y0.035 E14.15586
G1 X-19.182 Y-0.827 E14.19534
G1 X-19.125 Y-1.694 E14.23512
G1 X-19.026 Y-2.572 E14.27557
G1 X-18.885 Y-3.459 E14.31669
G1 X-18.699 Y-4.356 E14.35864
G1 X-18.467 Y-5.249 E14.40088
G1 X-18.191 Y-6.143 E14.44372
G1 X-17.864 Y-7.034 E14.48717
G1 X-17.492 Y-7.914 E14.53091
G1 X-17.071 Y-8.788 E14.57533
G1 X-16.603 Y-9.640 E14.61983
G1 X-16.091 Y-10.473 E14.66460
G1 X-15.532 Y-11.286 E14.70977
G1 X-14.928 Y-12.074 E14.75523
G1 X-14.284 Y-12.827 E14.80059
G1 X-13.604 Y-13.547 E14.84594
G1 X-12.885 Y-14.233 E14.89143
G1 X-12.131 Y-14.882 E14.93698
G1 X-11.344 Y-15.489 E14.98249
G1 X-10.536 Y-16.049 E15.02750
G1 X-9.707 Y-16.564 E15.07218
G1 X-8.854 Y-17.036 E15.11681
G1 X-7.981 Y-17.462 E15.16129
G1 X-7.101 Y-17.837 E15.20508
G1 X-6.211 Y-18.167 E15.24854
G1 X-5.319 Y-18.446 E15.29133
G1 X-4.424 Y-18.683 E15.33372
G1 X-3.526 Y-18.872 E15.37574
G1 X-2.642 Y-19.016 E15.41674
G1 X-1.760 Y-19.118 E15.45740
G1 X-0.889 Y-19.179 E15.49737
G1 X-0.150 Y-19.196 E15.53121
G1 X-0.035 Y-19.201 E15.53649
G1 X0.827 Y-19.182 E15.57596
G1 X1.694 Y-19.125 E15.61574
G1 X2.572 Y-19.026 E15.65619
G1 X3.459 Y-18.885 E15.69732
G1 X4.356 Y-18.699 E15.73926
G1 X5.249 Y-18.467 E15.78150
G1 X6.143 Y-18.191 E15.82434
G1 X7.034 Y-17.864 E15.86779
G1 X7.914 Y-17.492 E15.91153
G1 X8.788 Y-17.071 E15.95595
G1 X9.640 Y-16.603 E16.00046
G1 X10.473 Y-16.091 E16.04522
G1 X11.286 Y-15.532 E16.09039
G1 X12.074 Y-14.928 E16.13585
G1 X12.827 Y-14.284 E16.18122
G1 X13.547 Y-13.604 E16.22656
G1 X14.233 Y-12.885 E16.27206
G1 X14.882 Y-12.131 E16.31760
G1 X15.489 Y-11.344 E16.36311
G1 X16.049 Y-10.536 E16.40812
G1 X16.564 Y-9.707 E16.45280
G1 X17.036 Y-8.854 E16.49744
G1 X17.462 Y-7.981 E16.54191
G1 X17.837 Y-7.101 E16.58571
G1 X18.167 Y-6.211 E16.62917
G1 X18.446 Y-5.319 E16.67196
G1 X18.683 Y-4.424 E16.71435
G1 X18.872 Y-3.526 E16.75636
G1 X19.016 Y-2.642 E16.79737
G1 X19.118 Y-1.760 E16.83802
G1 X19.179 Y-0.889 E16.87799
G1 X19.196 Y-0.150 E16.91184
G1 F1200 E11.91184
G0 F10200 X14.002 Y0.005
;TYPE:WALL-INNER
G1 F1200 E16.91184
G1 F1380 X13.989 Y0.599 E16.93904
G1 X13.948 Y1.232 E16.96808
G1 X13.876 Y1.874 E16.99766
G1 X13.771 Y2.530 E17.02808
G1 X13.639 Y3.169 E17.05795
G1 X13.469 Y3.823 E17.08889
G1 X13.263 Y4.488 E17.12076
G1 X13.030 Y5.123 E17.15173
G1 X12.758 Y5.769 E17.18382
G1 X12.448 Y6.410 E17.21642
G1 X12.112 Y7.023 E17.24843
G1 X11.725 Y7.653 E17.28228
G1 X11.332 Y8.224 E17.31401
G1 X10.882 Y8.811 E17.34788
G1 X10.429 Y9.341 E17.37980
G1 X9.909 Y9.892 E17.41449
G1 X9.402 Y10.375 E17.44655
G1 X8.842 Y10.857 E17.48038
G1 X8.275 Y11.294 E17.51315
G1 X7.691 Y11.699 E17.54569
G1 X7.073 Y12.083 E17.57900
G1 X6.456 Y12.425 E17.61130
G1 X5.822 Y12.734 E17.64359
G1 X5.180 Y13.008 E17.67555
G1 X4.524 Y13.251 E17.70758
G1 X3.889 Y13.450 E17.73805
G1 X3.226 Y13.625 E17.76944
G1 X2.565 Y13.764 E17.80037
G1 X1.919 Y13.869 E17.83033
G1 X1.297 Y13.942 E17.85900
G1 X0.646 Y13.987 E17.88888
G1 X-0.005 Y14.002 E17.91869
G1 X-0.599 Y13.989 E17.94590
G1 X-1.232 Y13.948 E17.97494
G1 X-1.874 Y13.876 E18.00452
G1 X-2.530 Y13.771 E18.03493
G1 X-3.169 Y13.639 E18.06481
G1 X-3.823 Y13.469 E18.09574
G1 X-4.488 Y13.263 E18.12762
G1 X-5.123 Y13.030 E18.15859
G1 X-5.769 Y12.758 E18.19068
G1 X-6.410 Y12.448 E18.22328
G1 X-7.023 Y12.112 E18.25528
G1 X-7.653 Y11.725 E18.28913
G1 X-8.224 Y11.332 E18.32087
G1 X-8.811 Y10.882 E18.35473
G1 X-9.341 Y10.429 E18.38666
G1 X-9.892 Y9.909 E18.42134
G1 X-10.375 Y9.402 E18.45340
G1 X-10.857 Y8.842 E18.48723
G1 X-11.294 Y8.275 E18.52001
G1 X-11.699 Y7.691 E18.55255
G1 X-12.083 Y7.073 E18.58586
G1 X-12.425 Y6.456 E18.61816
G1 X-12.734 Y5.822 E18.65045
G1 X-13.008 Y5.180 E18.68241
G1 X-13.251 Y4.524 E18.71443
G1 X-13.450 Y3.889 E18.74490
G1 X-13.625 Y3.226 E18.77630
G1 X-13.764 Y2.565 E18.80722
G1 X-13.869 Y1.919 E18.83719
G1 X-13.942 Y1.297 E18.86586
G1 X-13.987 Y0.642 E18.89592
G1 X-14.002 Y-0.005 E18.92555
G1 X-13.989 Y-0.599 E18.95275
G1 X-13.948 Y-1.232 E18.98179
G1 X-13.876 Y-1.874 E19.01137
G1 X-13.771 Y-2.530 E19.04179
G1 X-13.639 Y-3.169 E19.07166
G1 X-13.469 Y-3.823 E19.10260
G1 X-13.263 Y-4.488 E19.13447
G1 X-13.030 Y-5.123 E19.16544
G1 X-12.758 Y-5.769 E19.19753
G1 X-12.448 Y-6.410 E19.23013
G1 X-12.112 Y-7.023 E19.26214
G1 X-11.725 Y-7.653 E19.29599
G1 X-11.332 Y-8.224 E19.32773
G1 X-10.877 Y-8.817 E19.36195
G1 X-10.429 Y-9.341 E19.39351
G1 X-9.909 Y-9.892 E19.42820
G1 X-9.402 Y-10.375 E19.46026
G1 X-8.842 Y-10.857 E19.49409
G1 X-8.275 Y-11.294 E19.52686
G1 X-7.691 Y-11.699 E19.55940
G1 X-7.073 Y-12.083 E19.59271
G1 X-6.456 Y-12.425 E19.62501
G1 X-5.822 Y-12.734 E19.65730
G1 X-5.180 Y-13.008 E19.68926
G1 X-4.524 Y-13.251 E19.72129
G1 X-3.889 Y-13.450 E19.75176
G1 X-3.226 Y-13.625 E19.78315
G1 X-2.565 Y-13.764 E19.81408
G1 X-1.919 Y-13.869 E19.84404
G1 X-1.297 Y-13.942 E19.87272
G1 X-0.646 Y-13.987 E19.90259
G1 X0.005 Y-14.002 E19.93241
G1 X0.599 Y-13.989 E19.95961
G1 X1.232 Y-13.948 E19.98865
G1 X1.874 Y-13.876 E20.01823
G1 X2.530 Y-13.771 E20.04864
G1 X3.169 Y-13.639 E20.07852
G1 X3.823 Y-13.469 E20.10946
G1 X4.488 Y-13.263 E20.14133
G1 X5.123 Y-13.030 E20.17230
G1 X5.769 Y-12.758 E20.20439
G1 X6.410 Y-12.448 E20.23699
G1 X7.023 Y-12.112 E20.26899
G1 X7.653 Y-11.725 E20.30285
G1 X8.224 Y-11.332 E20.33458
G1 X8.811 Y-10.882 E20.36845
G1 X9.341 Y-10.429 E20.40037
G1 X9.892 Y-9.909 E20.43506
G1 X10.375 Y-9.402 E20.46712
G1 X10.857 Y-8.842 E20.50094
G1 X11.294 Y-8.275 E20.53372
G1 X11.699 Y-7.691 E20.56626
G1 X12.083 Y-7.073 E20.59957
G1 X12.425 Y-6.456 E20.63187
G1 X12.734 Y-5.822 E20.66416
G1 X13.008 Y-5.180 E20.69612
G1 X13.251 Y-4.524 E20.72815
G1 X13.447 Y-3.899 E20.75814
G1 X13.625 Y-3.226 E20.79001
G1 X13.764 Y-2.565 E20.82093
G1 X13.869 Y-1.919 E20.85090
G1 X13.941 Y-1.304 E20.87925
G1 X13.987 Y-0.646 E20.90945
G1 X14.002 Y0.005 E20.93926
G0 F10200 X14.401 Y-0.007
G1 F1380 X14.402 Y0.009 E20.93999
G1 X14.389 Y0.602 E20.96715
G1 X14.344 Y1.281 E20.99831
G1 X14.273 Y1.915 E21.02752
G1 X14.163 Y2.608 E21.05964
G1 X14.030 Y3.250 E21.08966
G1 X13.850 Y3.943 E21.12244
G1 X13.643 Y4.611 E21.15446
G1 X13.405 Y5.262 E21.18619
G1 X13.118 Y5.943 E21.22003
G1 X12.813 Y6.575 E21.25216
