;Generated with Cura_SteamEngine 15.01
; Default start code
;G28 ; Home extruder
;G92 X-100 Y-100
;G1 Z0 F4000
;G92 Z0
M107 ; Turn off fan

G90 ; Absolute positioning
M82 ; Extruder in absolute mode
; Activate all used extruder
M104 T0 S185
G92 E69 ; Reset extruder position
; Wait for all used extruders to reach temperature
;M109 T0 S185
m209 s1
;Layer count: 45
;LAYER:0
M107
G0 F9000 X-17.535 Y-6.791 Z0.250

G1 Z0.750
G0 F9000 X-4.090 Y-35.523
G1 Z0.250
G1 F1200 E69.53381
G1 F840 X-3.984 Y-35.029 E69.56112
G1 X-4.460 Y-35.730 E69.60691
G1 X-4.894 Y-36.406 E69.65033
G1 X-5.316 Y-37.108 E69.69460
G1 X-5.915 Y-38.188 E69.76135
G1 X-6.168 Y-38.674 E69.79096
G1 X-5.620 Y-38.323 E69.82614
G1 X-5.094 Y-38.011 E69.85919
G1 X-4.447 Y-37.634 E69.89966
G1 X-4.258 Y-36.415 E69.96633
G1 X-4.090 Y-35.523 E70.01539
G0 F9000 X-3.580 Y-35.625
;TYPE:WALL-OUTER
G1 F840 X-3.406 Y-34.811 E70.06038
G1 X-3.180 Y-33.883 E70.11200
G1 X-2.957 Y-33.085 E70.15679
G1 X-2.709 Y-32.300 E70.20128
G1 X-2.413 Y-31.471 E70.24886
G1 X-2.217 Y-30.973 E70.27778
G1 X-1.869 Y-30.140 E70.32657
G1 X-1.869 Y-28.424 E70.41932
G1 X-2.348 Y-28.825 E70.45308
G1 X-3.401 Y-29.757 E70.52909
G1 X-4.714 Y-30.999 E70.62677
G1 X-5.490 Y-31.775 E70.68608
G1 X-6.248 Y-32.568 E70.74537
G1 X-6.794 Y-33.182 E70.78978
G1 X-7.352 Y-33.876 E70.83791
G1 X-7.835 Y-34.534 E70.88203
G1 X-8.289 Y-35.202 E70.92568
G1 X-8.710 Y-35.864 E70.96808
G1 X-9.099 Y-36.516 E71.00912
G1 X-9.782 Y-37.752 E71.08544
G1 X-10.135 Y-38.426 E71.12656
G1 X-10.688 Y-39.584 E71.19592
G1 X-11.037 Y-40.460 E71.24689
G1 X-11.241 Y-41.090 E71.28268
G1 X-10.216 Y-40.926 E71.33878
G1 X-9.615 Y-40.845 E71.37156
G1 X-8.954 Y-39.460 E71.45450
G1 X-8.587 Y-38.705 E71.49987
G1 X-8.283 Y-38.110 E71.53598
G1 X-7.951 Y-37.470 E71.57495
G1 X-7.192 Y-36.079 E71.66060
G1 X-6.783 Y-35.397 E71.70358
G1 X-6.291 Y-34.623 E71.75315
G1 X-5.637 Y-33.650 E71.81651
G1 X-4.955 Y-32.679 E71.88064
G1 X-4.813 Y-32.534 E71.89161
G1 X-4.727 Y-32.473 E71.89731
G1 X-4.534 Y-32.387 E71.90873
G1 X-4.432 Y-32.366 E71.91436
G1 X-4.262 Y-32.356 E71.92356
G1 X-4.090 Y-32.384 E71.93298
G1 X-3.838 Y-32.503 E71.94804
G1 X-3.669 Y-32.667 E71.96077
G1 X-3.558 Y-32.861 E71.97285
G1 X-3.509 Y-33.041 E71.98293
G1 X-3.499 Y-33.197 E71.99138
G1 X-3.509 Y-33.305 E71.99724
G1 X-3.603 Y-33.568 E72.01234
G1 X-4.109 Y-34.288 E72.05990
G1 X-4.887 Y-35.434 E72.13477
G1 X-5.344 Y-36.145 E72.18045
G1 X-5.762 Y-36.840 E72.22428
G1 X-6.377 Y-37.948 E72.29277
G1 X-6.852 Y-38.862 E72.34844
G1 X-7.114 Y-39.376 E72.37963
G1 X-7.441 Y-40.044 E72.41982
G1 X-7.512 Y-40.193 E72.42874
G1 X-6.595 Y-39.564 E72.48884
G1 X-5.347 Y-38.766 E72.56891
G1 X-4.831 Y-38.460 E72.60133
G1 X-3.971 Y-37.958 E72.65515
G1 X-3.745 Y-36.503 E72.73473
G1 X-3.580 Y-35.625 E72.78302
G1 F1200 E70.78302
G1 Z0.750
G0 F9000 X-3.571 Y-31.851
;TYPE:FILL
G1 Z0.250
G1 F1200 E72.78302
G1 F840 X-3.145 Y-31.441 E72.81614
G1 X-3.548 Y-31.861 E72.84760
G0 F9000 X-4.093 Y-31.670
;TYPE:SKIN
G1 F840 X-2.679 Y-30.256 E72.95568
G1 F1200 E70.95568
G1 Z0.750
G0 F9000 X-1.416 Y-35.892
;TYPE:WALL-INNER
G1 Z0.250
G1 F1200 E72.95568
G1 F840 X-1.444 Y-35.888 E72.95721
G1 X-1.520 Y-36.239 E72.97662
G1 X-0.894 Y-36.021 E73.01245
G1 X-0.894 Y-35.892 E73.01942
G1 X-1.416 Y-35.892 E73.04763
G0 F9000 X-1.731 Y-35.218
;TYPE:WALL-OUTER
G1 F840 X-1.805 Y-35.102 E73.05507
G1 X-2.053 Y-36.243 E73.11818
G1 X-2.199 Y-37.084 E73.16431
G1 X-1.189 Y-36.665 E73.22341
G1 X-0.633 Y-36.483 E73.25503
G1 X-0.374 Y-36.425 E73.26937
G1 X-0.374 Y-35.372 E73.32629
G1 X-1.378 Y-35.372 E73.38055
G1 X-1.505 Y-35.353 E73.38749
G1 X-1.604 Y-35.311 E73.39330
G1 X-1.731 Y-35.218 E73.40181
G1 F1200 E71.40181
G1 Z0.750
G0 F9000 X1.793 Y-36.030
;TYPE:WALL-INNER
G1 Z0.250
G1 F1200 E73.40181
G1 F840 X2.412 Y-36.237 E73.43709
G1 X2.343 Y-35.888 E73.45631
G1 X1.793 Y-35.890 E73.48604
G1 X1.793 Y-36.030 E73.49361
G0 F9000 X2.349 Y-35.368
;TYPE:WALL-OUTER
G1 F840 X1.273 Y-35.371 E73.55176
G1 X1.273 Y-36.418 E73.60835
G1 X2.003 Y-36.636 E73.64953
G1 X2.649 Y-36.888 E73.68701
G1 X3.101 Y-37.087 E73.71370
G1 X2.737 Y-35.207 E73.81719
G1 X2.710 Y-35.096 E73.82337
G1 X2.626 Y-35.223 E73.83160
G1 X2.495 Y-35.317 E73.84031
G1 X2.349 Y-35.368 E73.84867
G1 F1200 E71.84867
G1 Z0.750
G0 F9000 X5.124 Y-36.229
;TYPE:WALL-INNER
G1 Z0.250
G1 F1200 E73.84867
G1 F840 X5.348 Y-37.634 E73.92557
G1 X5.993 Y-38.010 E73.96592
G1 X6.518 Y-38.321 E73.99890
G1 X7.066 Y-38.670 E74.03401
G1 X6.334 Y-37.316 E74.11720
G1 X5.856 Y-36.506 E74.16804
G1 X5.440 Y-35.851 E74.20997
G1 X4.879 Y-35.012 E74.26452
G1 X5.124 Y-36.229 E74.33162
G1 F1200 E72.33162
G1 Z0.750
G0 F9000 X4.342 Y-32.154
G1 Z0.250
G1 F1200 E74.33162
G1 F840 X4.485 Y-32.047 E74.34127
G1 X4.847 Y-31.879 E74.36284
G1 X5.146 Y-31.833 E74.37919
G1 X5.439 Y-31.852 E74.39506
G1 X5.710 Y-31.930 E74.41030
G1 X5.938 Y-32.059 E74.42446
G1 X5.414 Y-31.530 E74.46471
G1 X4.125 Y-30.302 E74.56093
G1 X3.289 Y-29.554 E74.62156
G1 X3.289 Y-30.037 E74.64766
G1 X3.590 Y-30.762 E74.69009
G1 X3.997 Y-31.838 E74.75227
G1 X4.162 Y-32.340 E74.78083
G1 X4.342 Y-32.154 E74.79482
G0 F9000 X5.686 Y-31.987
G0 X6.764 Y-33.067
G1 F840 X7.526 Y-34.189 E74.86812
G1 X8.056 Y-35.012 E74.92103
G1 X8.508 Y-35.762 E74.96836
G1 X9.120 Y-36.864 E75.03648
G1 X9.645 Y-37.871 E75.09786
G1 X9.926 Y-38.420 E75.13120
G1 X10.213 Y-39.010 E75.16666
G1 X10.863 Y-40.367 E75.24798
G1 X11.361 Y-40.436 E75.27515
G1 X11.167 Y-39.921 E75.30490
G1 X10.762 Y-39.032 E75.35770
G1 X10.217 Y-37.987 E75.42140
G1 X9.757 Y-37.152 E75.47292
G1 X9.226 Y-36.235 E75.53019
G1 X8.822 Y-35.594 E75.57114
G1 X8.371 Y-34.924 E75.61479
G1 X7.906 Y-34.284 E75.65755
G1 X7.417 Y-33.664 E75.70023
G1 X6.870 Y-33.033 E75.74536
G1 X6.366 Y-32.502 E75.78493
G1 X6.764 Y-33.067 E75.82229
G0 F9000 X6.336 Y-33.363
;TYPE:WALL-OUTER
G1 F840 X7.092 Y-34.476 E75.89501
G1 X7.615 Y-35.287 E75.94716
G1 X8.058 Y-36.023 E75.99359
G1 X8.662 Y-37.111 E76.06085
G1 X9.183 Y-38.110 E76.12174
G1 X9.461 Y-38.653 E76.15471
G1 X9.745 Y-39.236 E76.18976
G1 X10.504 Y-40.822 E76.28479
G1 X10.515 Y-40.845 E76.28617
G1 X11.115 Y-40.925 E76.31889
G1 X11.711 Y-41.015 E76.35147
G1 X12.142 Y-41.090 E76.37511
G1 X11.649 Y-39.726 E76.45350
G1 X11.225 Y-38.794 E76.50884
G1 X10.681 Y-37.752 E76.57237
G1 X10.204 Y-36.887 E76.62576
G1 X9.672 Y-35.968 E76.68315
G1 X9.253 Y-35.303 E76.72563
G1 X8.798 Y-34.627 E76.76967
G1 X8.325 Y-33.975 E76.81321
G1 X7.812 Y-33.325 E76.85796
G1 X7.247 Y-32.675 E76.90451
G1 X6.502 Y-31.890 E76.96300
G1 X5.767 Y-31.148 E77.01945
G1 X4.490 Y-29.931 E77.11479
G1 X3.389 Y-28.947 E77.19460
G1 X2.769 Y-28.425 E77.23841
G1 X2.769 Y-30.140 E77.33110
G1 X3.113 Y-30.967 E77.37951
G1 X3.506 Y-32.010 E77.43975
G1 X3.820 Y-32.961 E77.49388
G1 X4.061 Y-33.818 E77.54199
G1 X4.259 Y-34.620 E77.58664
G1 X4.455 Y-35.501 E77.63542
G1 X4.612 Y-36.319 E77.68044
G1 X4.852 Y-37.828 E77.76302
G1 X4.872 Y-37.959 E77.77018
G1 X5.730 Y-38.459 E77.82386
G1 X6.246 Y-38.764 E77.85625
G1 X7.323 Y-39.451 E77.92530
G1 X8.321 Y-40.124 E77.99036
G1 X8.409 Y-40.187 E77.99620
G1 X8.064 Y-39.477 E78.03887
G1 X7.752 Y-38.862 E78.07614
G1 X7.419 Y-38.223 E78.11509
G1 X6.782 Y-37.052 E78.18713
G1 X6.304 Y-36.242 E78.23797
G1 X5.873 Y-35.562 E78.28148
G1 X5.255 Y-34.639 E78.34152
G1 X4.539 Y-33.620 E78.40883
G1 X4.448 Y-33.444 E78.41954
G1 X4.406 Y-33.278 E78.42879
G1 X4.397 Y-33.117 E78.43751
G1 X4.452 Y-32.869 E78.45123
G1 X4.566 Y-32.671 E78.46358
G1 X4.687 Y-32.545 E78.47302
G1 X4.754 Y-32.496 E78.47751
G1 X4.999 Y-32.382 E78.49212
G1 X5.169 Y-32.356 E78.50141
G1 X5.350 Y-32.367 E78.51121
G1 X5.507 Y-32.413 E78.52005
G1 X5.702 Y-32.523 E78.53215
G1 X5.855 Y-32.679 E78.54396
G1 X6.336 Y-33.363 E78.58916
G1 F1200 E76.58916
G1 Z0.750
G0 F9000 X6.021 Y-37.143
;TYPE:FILL
G1 Z0.250
G1 F1200 E78.58916
G1 F840 X5.598 Y-37.566 E78.62149
G1 F1200 E76.62149
G1 Z0.750
G0 F9000 X3.694 Y-30.539
G1 Z0.250
G1 F1200 E78.62149
G1 F840 X3.884 Y-30.330 E78.63676
G1 X3.786 Y-30.776 E78.65133
G1 X4.442 Y-30.855 E78.67907
G1 X4.354 Y-31.679 E78.72024
G1 X5.007 Y-31.394 E78.75875
G1 F1200 E76.75875
G1 Z0.750
G0 F9000 X0.844 Y-28.905
;TYPE:WALL-INNER
G1 Z0.250
G1 F1200 E78.75875
G1 F840 X1.169 Y-29.054 E78.77808
G1 X1.169 Y-23.343 E79.08674
G1 X-0.270 Y-23.344 E79.16452
G1 X-0.270 Y-29.092 E79.47518
G1 X-0.178 Y-29.025 E79.48133
G1 X-0.003 Y-28.944 E79.49176
G1 X0.223 Y-28.880 E79.50445
G1 X0.488 Y-28.853 E79.51885
G1 X0.844 Y-28.905 E79.53829
G0 F9000 X0.695 Y-29.409
;TYPE:WALL-OUTER
G1 F840 X0.908 Y-29.506 E79.55094
G1 X1.048 Y-29.619 E79.56067
G1 X1.182 Y-29.804 E79.57301
G1 X1.225 Y-29.896 E79.57850
G1 X1.269 Y-30.050 E79.58716
G1 X1.278 Y-30.959 E79.63629
G1 X1.278 Y-32.102 E79.69807
G1 X1.689 Y-32.101 E79.72028
G1 X1.689 Y-22.824 E80.22168
G1 X-0.790 Y-22.824 E80.35567
G1 X-0.790 Y-32.101 E80.85707
G1 X-0.467 Y-32.103 E80.87452
G1 X-0.338 Y-32.102 E80.88150
G1 X-0.338 Y-30.176 E80.98559
G1 X-0.325 Y-30.027 E80.99368
G1 X-0.216 Y-29.755 E81.00951
G1 X-0.099 Y-29.610 E81.01958
G1 X0.086 Y-29.476 E81.03193
G1 X0.178 Y-29.433 E81.03742
G1 X0.321 Y-29.393 E81.04544
G1 X0.476 Y-29.377 E81.05387
G1 X0.695 Y-29.409 E81.06583
G0 F9000 X0.366 Y-28.681
;TYPE:SKIN
G1 F840 X0.987 Y-28.060 E81.11329
G0 F9000 X0.987 Y-27.325
G1 F840 X-0.088 Y-28.400 E81.19546
G0 F9000 X-0.088 Y-27.665
G1 F840 X0.987 Y-26.590 E81.27763
G0 F9000 X0.987 Y-25.854
G1 F840 X-0.088 Y-26.930 E81.35984
G0 F9000 X-0.088 Y-26.194
G1 F840 X0.987 Y-25.119 E81.44200
G0 F9000 X0.987 Y-24.383
G1 F840 X-0.088 Y-25.459 E81.52421
G0 F9000 X-0.088 Y-24.723
G1 F840 X0.987 Y-23.648 E81.60638
G0 F9000 X0.374 Y-23.525
G1 F840 X-0.088 Y-23.988 E81.64173
G1 F1200 E79.64173
G1 Z0.750
G0 F9000 X-3.256 Y-24.513
;TYPE:WALL-INNER
G1 Z0.250
G1 F1200 E81.64173
G1 F840 X-2.397 Y-24.348 E81.68900
G1 X-2.397 Y-22.852 E81.76986
G1 X-3.527 Y-23.098 E81.83236
G1 X-4.315 Y-23.306 E81.87641
G1 X-5.089 Y-23.551 E81.92029
G1 X-5.833 Y-23.824 E81.96312
G1 X-5.965 Y-23.891 E81.97112
G1 X-6.078 Y-23.979 E81.97886
G1 X-6.175 Y-24.091 E81.98687
G1 X-6.273 Y-24.282 E81.99848
G1 X-6.305 Y-24.429 E82.00661
G1 X-6.308 Y-24.504 E82.01066
G1 X-6.283 Y-24.689 E82.02075
G1 X-6.230 Y-24.821 E82.02844
G1 X-6.154 Y-24.942 E82.03616
G1 X-6.002 Y-25.090 E82.04763
G1 X-5.956 Y-25.119 E82.05057
G1 X-5.785 Y-25.194 E82.06066
G1 X-5.662 Y-25.217 E82.06742
G1 X-5.606 Y-25.220 E82.07046
G1 X-5.433 Y-25.203 E82.07985
G1 X-4.684 Y-24.934 E82.12286
G1 X-3.969 Y-24.705 E82.16344
G1 X-3.256 Y-24.513 E82.20335
G0 F9000 X-2.277 Y-22.720
G0 X-2.144 Y-19.174
G1 F840 X-2.145 Y-19.235 E82.20665
G1 X-2.077 Y-19.174 E82.21159
G1 X-2.144 Y-19.174 E82.21521
G0 F9000 X-0.517 Y-18.826
G1 F840 X-0.593 Y-18.888 E82.22051
G1 X1.474 Y-18.885 E82.33222
G1 X1.307 Y-18.683 E82.34639
G1 X1.215 Y-18.472 E82.35883
G1 X1.167 Y-18.270 E82.37005
G1 X1.165 Y-15.194 E82.53630
G1 X-0.275 Y-15.194 E82.61413
G1 X-0.275 Y-18.070 E82.76957
G1 X-0.303 Y-18.461 E82.79076
G1 X-0.517 Y-18.826 E82.81363
G0 F9000 X3.035 Y-19.174
G1 F840 X2.970 Y-19.174 E82.81714
G1 X3.037 Y-19.248 E82.82254
G1 X3.035 Y-19.174 E82.82654
G0 F9000 X3.144 Y-22.715
G0 X4.458 Y-23.109
G1 F840 X3.287 Y-22.853 E82.89132
G1 X3.287 Y-24.331 E82.97120
G1 X4.060 Y-24.493 E83.01389
G1 X4.764 Y-24.678 E83.05323
G1 X5.459 Y-24.895 E83.09258
G1 X6.143 Y-25.143 E83.13191
G1 X6.233 Y-25.175 E83.13707
G1 X6.366 Y-25.199 E83.14437
G1 X6.413 Y-25.201 E83.14692
G1 X6.649 Y-25.169 E83.15979
G1 X6.772 Y-25.115 E83.16705
G1 X6.903 Y-25.023 E83.17570
G1 X7.002 Y-24.916 E83.18358
G1 X7.074 Y-24.801 E83.19091
G1 X7.127 Y-24.669 E83.19860
G1 X7.150 Y-24.504 E83.20761
G1 X7.132 Y-24.324 E83.21738
G1 X7.116 Y-24.263 E83.22079
G1 X7.099 Y-24.217 E83.22344
G1 X7.015 Y-24.069 E83.23264
G1 X6.920 Y-23.960 E83.24045
G1 X6.793 Y-23.862 E83.24912
G1 X6.771 Y-23.850 E83.25048
G1 X5.994 Y-23.557 E83.29536
G1 X5.247 Y-23.319 E83.33773
G1 X4.458 Y-23.109 E83.38186
G0 F9000 X4.593 Y-22.606
;TYPE:WALL-OUTER
G1 F840 X3.559 Y-22.380 E83.43907
G1 X3.559 Y-19.303 E83.60537
G1 X3.553 Y-19.064 E83.61829
G1 X3.532 Y-18.977 E83.62313
G1 X3.521 Y-18.948 E83.62481
G1 X3.478 Y-18.869 E83.62967
G1 X3.454 Y-18.837 E83.63183
G1 X3.315 Y-18.718 E83.64172
G1 X3.235 Y-18.681 E83.64648
G1 X3.182 Y-18.665 E83.64947
G1 X2.203 Y-18.654 E83.70239
G1 X1.994 Y-18.618 E83.71385
G1 X1.852 Y-18.525 E83.72303
G1 X1.754 Y-18.408 E83.73128
G1 X1.710 Y-18.307 E83.73723
G1 X1.687 Y-18.209 E83.74267
G1 X1.684 Y-14.674 E83.93373
G1 X-0.795 Y-14.673 E84.06771
G1 X-0.795 Y-18.051 E84.25029
G1 X-0.813 Y-18.303 E84.26394
G1 X-0.918 Y-18.483 E84.27521
G1 X-1.042 Y-18.583 E84.28381
G1 X-1.141 Y-18.628 E84.28969
G1 X-1.241 Y-18.651 E84.29524
G1 X-2.207 Y-18.654 E84.34745
G1 X-2.340 Y-18.679 E84.35476
G1 X-2.487 Y-18.760 E84.36383
G1 X-2.587 Y-18.868 E84.37179
G1 X-2.630 Y-18.945 E84.37656
G1 X-2.663 Y-19.058 E84.38292
G1 X-2.691 Y-22.384 E84.56269
G1 X-3.653 Y-22.593 E84.61589
G1 X-4.463 Y-22.807 E84.66117
G1 X-5.248 Y-23.055 E84.70567
G1 X-6.036 Y-23.345 E84.75105
G1 X-6.249 Y-23.453 E84.76396
G1 X-6.437 Y-23.600 E84.77686
G1 X-6.602 Y-23.789 E84.79042
G1 X-6.728 Y-24.015 E84.80440
G1 X-6.805 Y-24.259 E84.81823
G1 X-6.822 Y-24.374 E84.82451
G1 X-6.828 Y-24.504 E84.83155
G1 X-6.822 Y-24.629 E84.83831
G1 X-6.806 Y-24.738 E84.84427
G1 X-6.779 Y-24.851 E84.85055
G1 X-6.694 Y-25.061 E84.86279
G1 X-6.570 Y-25.259 E84.87542
G1 X-6.401 Y-25.439 E84.88876
G1 X-6.305 Y-25.513 E84.89531
G1 X-6.196 Y-25.582 E84.90228
G1 X-5.957 Y-25.686 E84.91637
G1 X-5.717 Y-25.734 E84.92960
G1 X-5.595 Y-25.741 E84.93620
G1 X-5.242 Y-25.691 E84.95547
G1 X-4.515 Y-25.426 E84.99730
G1 X-3.822 Y-25.204 E85.03663
G1 X-3.139 Y-25.020 E85.07486
G1 X-1.877 Y-24.778 E85.14431
G1 X-1.877 Y-19.991 E85.40303
G1 X-1.859 Y-19.760 E85.41556
G1 X-1.778 Y-19.605 E85.42501
G1 X-1.632 Y-19.472 E85.43568
G1 X-1.473 Y-19.410 E85.44491
G1 X2.285 Y-19.403 E85.64802
G1 X2.455 Y-19.441 E85.65743
G1 X2.569 Y-19.505 E85.66450
G1 X2.698 Y-19.648 E85.67491
G1 X2.760 Y-19.807 E85.68413
G1 X2.767 Y-24.772 E85.95248
G1 X3.940 Y-24.999 E86.01705
G1 X4.621 Y-25.178 E86.05511
G1 X5.293 Y-25.388 E86.09316
G1 X5.970 Y-25.634 E86.13209
G1 X6.191 Y-25.699 E86.14454
G1 X6.316 Y-25.717 E86.15137
G1 X6.430 Y-25.722 E86.15754
G1 X6.690 Y-25.695 E86.17167
G1 X6.923 Y-25.621 E86.18488
G1 X7.039 Y-25.563 E86.19189
G1 X7.247 Y-25.416 E86.20565
G1 X7.416 Y-25.235 E86.21904
G1 X7.540 Y-25.036 E86.23171
G1 X7.622 Y-24.830 E86.24369
G1 X7.665 Y-24.616 E86.25549
G1 X7.671 Y-24.487 E86.26247
G1 X7.644 Y-24.227 E86.27660
G1 X7.612 Y-24.104 E86.28347
G1 X7.572 Y-23.998 E86.28959
G1 X7.441 Y-23.766 E86.30399
G1 X7.278 Y-23.579 E86.31740
G1 X7.080 Y-23.428 E86.33086
G1 X6.989 Y-23.376 E86.33652
G1 X6.180 Y-23.071 E86.38325
G1 X5.369 Y-22.813 E86.42925
G1 X4.593 Y-22.606 E86.47266
G0 F9000 X4.511 Y-22.956
G0 X3.179 Y-24.423
G0 X3.091 Y-19.403
G0 X2.335 Y-18.945
G0 X0.646 Y-18.702
;TYPE:FILL
G1 F840 X0.999 Y-18.350 E86.49960
G0 F9000 X-0.093 Y-16.465
G1 F840 X0.983 Y-15.388 E86.58188
G0 F9000 X0.983 Y-15.562
;TYPE:SKIN
G1 F840 X-0.093 Y-16.639 E86.66416
G0 F9000 X-0.093 Y-15.904
G1 F840 X0.435 Y-15.375 E86.70456
G0 F9000 X0.983 Y-16.298
G1 F840 X-0.093 Y-17.375 E86.78684
G0 F9000 X-0.095 Y-18.112
G1 F840 X0.984 Y-17.032 E86.86935
G0 F9000 X0.984 Y-17.767
G1 F840 X0.048 Y-18.703 E86.94090
G0 F9000 X0.784 Y-18.702
G1 F840 X1.026 Y-18.461 E86.95936
G0 F9000 X1.319 Y-18.970
G0 X2.858 Y-19.144
G0 X3.216 Y-19.720
G0 X3.310 Y-24.397
G0 X3.710 Y-23.131
G1 F840 X3.468 Y-23.373 E86.97785
G0 F9000 X3.468 Y-24.108
G1 F840 X4.314 Y-23.263 E87.04248
G0 F9000 X4.898 Y-23.413
G1 F840 X4.015 Y-24.296 E87.10997
G0 F9000 X4.602 Y-24.445
G1 F840 X5.467 Y-23.580 E87.17609
G0 F9000 X6.021 Y-23.761
G1 F840 X5.170 Y-24.612 E87.24113
G0 F9000 X5.722 Y-24.796
G1 F840 X6.555 Y-23.963 E87.30480
G0 F9000 X6.941 Y-24.312
G1 F840 X6.262 Y-24.991 E87.35670
G0 F9000 X3.222 Y-24.490
G0 X3.091 Y-19.403
G0 X2.335 Y-18.945
G0 X-1.877 Y-19.079
G0 X-2.336 Y-19.974
G0 X-2.334 Y-23.576
G0 X-2.578 Y-23.537
G1 F840 X-3.404 Y-24.362 E87.41980
G0 F9000 X-4.440 Y-24.663
G1 F840 X-2.930 Y-23.153 E87.53522
G0 F9000 X-3.894 Y-23.381
G1 F840 X-5.541 Y-25.029 E87.66114
G0 F9000 X-6.035 Y-24.788
