;Generated with Cura_SteamEngine 15.01
; Default start code
G28 ; Home extruder
;G92 X-100 Y-100
G1 Z10 F4000
;G92 Z0
M107 ; Turn off fan

G90 ; Absolute positioning
M82 ; Extruder in absolute mode
; Activate all used extruder
M104 T0 S185
G92 E0 ; Reset extruder position
; Wait for all used extruders to reach temperature
M109 T0 S185
m209 s1
;Layer count: 50
;LAYER:0
M107
G0 F4200 X0.039 Y-4.024 Z0.300
;TYPE:SKIRT
G1 F900 X0.673 Y-4.006 E0.06961
G1 X1.584 Y-3.979 E0.16965
G1 X2.024 Y-3.941 E0.21812
G1 X3.514 Y-3.803 E0.38236
G1 X4.165 Y-3.737 E0.45418
G1 X4.164 Y-3.741 E0.45463
G1 X3.849 Y-4.591 E0.55413
G1 X3.569 Y-5.211 E0.62880
G1 X3.265 Y-5.874 E0.70885
G1 X3.042 Y-6.399 E0.77146
G1 X2.763 Y-7.099 E0.85417
G1 X2.553 Y-7.818 E0.93638
G1 X2.383 Y-8.663 E1.03098
G1 X2.340 Y-9.435 E1.11585
G1 X2.375 Y-9.785 E1.15446
G1 X2.217 Y-9.736 E1.17261
G1 X1.417 Y-9.656 E1.26086
G1 X0.519 Y-9.821 E1.36107
G1 X-0.230 Y-10.308 E1.45913
G1 X-0.800 Y-10.954 E1.55369
G1 X-1.134 Y-11.862 E1.65988
G1 X-1.128 Y-12.240 E1.70137
G1 X-1.168 Y-12.778 E1.76058
G1 X-0.980 Y-13.237 E1.81503
G1 X-0.935 Y-13.409 E1.83454
G1 X-0.760 Y-13.722 E1.87390
G1 X-1.012 Y-14.024 E1.91707
G1 X-1.311 Y-14.594 E1.98772
G1 X-1.439 Y-15.326 E2.06928
G1 X-1.400 Y-15.943 E2.13714
G1 X-1.118 Y-16.702 E2.22601
G1 X-0.583 Y-17.358 E2.31892
G1 X0.096 Y-17.820 E2.40906
G1 X0.831 Y-18.076 E2.49448
G1 X0.896 Y-18.087 E2.50172
G1 X0.870 Y-18.144 E2.50860
G1 X0.732 Y-18.803 E2.58250
G1 X0.708 Y-19.140 E2.61958
G1 X0.753 Y-19.733 E2.68485
G1 X0.980 Y-20.443 E2.76667
G1 X1.462 Y-21.107 E2.85672
G1 X2.273 Y-21.746 E2.97005
G1 X3.291 Y-21.953 E3.08407
G1 X4.008 Y-21.857 E3.16347
G1 X4.599 Y-21.640 E3.23257
G1 X4.714 Y-21.569 E3.24740
G1 X4.880 Y-21.949 E3.29292
G1 X5.314 Y-22.535 E3.37295
G1 X5.697 Y-22.906 E3.43148
G1 X6.396 Y-23.351 E3.52243
G1 X7.389 Y-23.545 E3.63348
G1 X8.128 Y-23.444 E3.71535
G1 X8.709 Y-23.255 E3.78241
G1 X9.247 Y-22.914 E3.85232
G1 X9.636 Y-22.575 E3.90895
G1 X10.032 Y-22.057 E3.98052
G1 X10.405 Y-21.249 E4.07820
G1 X10.534 Y-20.709 E4.13913
G1 X10.583 Y-20.288 E4.18565
G1 X10.587 Y-20.021 E4.21496
G1 X10.545 Y-19.410 E4.28218
G1 X10.437 Y-18.770 E4.35342
G1 X10.384 Y-18.451 E4.38891
G1 X10.390 Y-18.452 E4.38958
G1 X10.641 Y-18.456 E4.41713
G1 X11.031 Y-18.428 E4.46005
G1 X11.510 Y-18.333 E4.51365
G1 X11.927 Y-18.182 E4.56233
G1 X12.557 Y-17.846 E4.64069
G1 X13.084 Y-17.362 E4.71923
G1 X13.354 Y-17.034 E4.76586
G1 X13.722 Y-16.354 E4.85072
G1 X13.878 Y-15.648 E4.93008
G1 X13.900 Y-15.086 E4.99181
G1 X13.681 Y-14.118 E5.10074
G1 X13.220 Y-13.495 E5.18581
G1 X12.672 Y-12.947 E5.27087
G1 X11.887 Y-12.640 E5.36339
G1 X11.375 Y-12.531 E5.42084
G1 X10.916 Y-12.503 E5.47131
G1 X10.276 Y-12.520 E5.54158
G1 X9.558 Y-12.574 E5.62061
G1 X9.432 Y-12.147 E5.66948
G1 X9.233 Y-11.561 E5.73740
G1 X9.023 Y-10.951 E5.80821
G1 X8.850 Y-10.361 E5.87570
G1 X8.766 Y-9.876 E5.92972
G1 X8.734 Y-9.687 E5.95076
G1 X8.833 Y-9.071 E6.01924
G1 X8.940 Y-8.668 E6.06501
G1 X9.048 Y-8.349 E6.10197
G1 X9.320 Y-7.727 E6.17648
G1 X9.535 Y-7.347 E6.22440
G1 X9.838 Y-6.838 E6.28942
G1 X10.130 Y-6.393 E6.34784
G1 X10.131 Y-6.394 E6.34799
G1 X10.225 Y-6.255 E6.36641
G1 X10.564 Y-5.979 E6.41439
G1 X10.631 Y-5.915 E6.42456
G1 X10.633 Y-5.914 E6.42481
G1 X10.784 Y-5.825 E6.44405
G1 X11.143 Y-5.647 E6.48803
G1 X11.528 Y-5.493 E6.53354
G1 X12.410 Y-5.240 E6.63425
G1 X12.924 Y-5.056 E6.69417
G1 X13.078 Y-5.013 E6.71172
G1 X13.080 Y-5.013 E6.71194
G1 X13.116 Y-5.014 E6.71589
G1 X13.249 Y-5.036 E6.73069
G1 X13.431 Y-5.081 E6.75127
G1 X13.994 Y-5.289 E6.81714
G1 X14.537 Y-5.507 E6.88137
G1 X15.046 Y-5.693 E6.94085
G1 X15.492 Y-5.874 E6.99368
G1 X16.150 Y-6.153 E7.07212
G1 X16.912 Y-6.489 E7.16353
G1 X17.612 Y-6.746 E7.24537
G1 X18.100 Y-6.904 E7.30167
G1 X18.459 Y-6.998 E7.34240
G1 X19.007 Y-7.164 E7.40525
G1 X19.602 Y-7.316 E7.47265
G1 X20.143 Y-7.464 E7.53421
G1 X20.984 Y-7.695 E7.62994
G1 X21.521 Y-7.811 E7.69024
G1 X22.212 Y-7.988 E7.76853
G1 X22.866 Y-8.086 E7.84112
G1 X23.490 Y-8.171 E7.91024
G1 X24.321 Y-8.209 E8.00154
G1 X25.070 Y-8.222 E8.08376
G1 X25.458 Y-8.223 E8.12635
G1 X25.948 Y-8.212 E8.18014
G1 X26.665 Y-8.152 E8.25912
G1 X27.342 Y-8.121 E8.33350
G1 X27.346 Y-8.121 E8.33394
G1 X27.421 Y-8.123 E8.34217
G1 X28.080 Y-8.102 E8.41454
G1 X28.572 Y-8.048 E8.46887
G1 X29.513 Y-7.859 E8.57421
G1 X29.995 Y-7.720 E8.62927
G1 X30.692 Y-7.464 E8.71077
G1 X31.355 Y-7.195 E8.78930
G1 X32.031 Y-6.862 E8.87201
G1 X32.729 Y-6.514 E8.95762
G1 X33.519 Y-6.005 E9.06077
G1 X34.042 Y-5.610 E9.13270
G1 X34.552 Y-5.169 E9.20670
G1 X35.043 Y-4.709 E9.28055
G1 X35.479 Y-4.205 E9.35370
G1 X35.866 Y-3.645 E9.42841
G1 X36.238 Y-3.012 E9.50900
G1 X36.581 Y-2.212 E9.60453
G1 X36.863 Y-1.202 E9.71963
G1 X36.989 Y-0.272 E9.82264
G1 X37.047 Y0.445 E9.90159
G1 X37.045 Y1.117 E9.97535
G1 X37.020 Y1.703 E10.03973
G1 X36.960 Y2.243 E10.09936
G1 X36.793 Y3.203 E10.20631
G1 X36.541 Y4.156 E10.31451
G1 X36.221 Y4.920 E10.40542
G1 X35.688 Y5.803 E10.51862
G1 X35.004 Y6.583 E10.63249
G1 X34.314 Y7.217 E10.73534
G1 X33.614 Y7.675 E10.82716
G1 X32.915 Y7.983 E10.91099
G1 X32.204 Y8.250 E10.99435
G1 X31.289 Y8.538 E11.09964
G1 X30.730 Y8.696 E11.16340
G1 X30.043 Y8.792 E11.23954
G1 X29.441 Y8.866 E11.30611
G1 X28.927 Y8.923 E11.36287
G1 X27.890 Y8.947 E11.47672
G1 X26.922 Y8.856 E11.58343
G1 X26.113 Y8.714 E11.67359
G1 X25.112 Y8.440 E11.78750
G1 X24.398 Y8.185 E11.87071
G1 X23.433 Y7.761 E11.98640
G1 X22.991 Y7.514 E12.04197
G1 X22.202 Y6.998 E12.14545
G1 X21.500 Y6.528 E12.23817
G1 X20.857 Y6.061 E12.32540
G1 X20.346 Y5.705 E12.39375
G1 X19.567 Y5.046 E12.50575
G1 X19.113 Y4.698 E12.56853
G1 X18.600 Y4.199 E12.64708
G1 X17.983 Y3.621 E12.73988
G1 X17.201 Y2.697 E12.87274
G1 X16.985 Y2.340 E12.91854
G1 X16.548 Y2.568 E12.97264
G1 X16.344 Y2.708 E12.99979
G1 X16.193 Y2.833 E13.02131
G1 X16.086 Y2.954 E13.03904
G1 X15.965 Y3.152 E13.06451
G1 X15.745 Y3.593 E13.11860
G1 X15.437 Y4.228 E13.19606
G1 X15.206 Y4.805 E13.26428
G1 X15.166 Y4.898 E13.27539
G1 X15.000 Y5.408 E13.33426
G1 X14.841 Y5.912 E13.39226
G1 X14.701 Y6.640 E13.47363
G1 X14.586 Y7.317 E13.54900
G1 X14.482 Y7.840 E13.60753
G1 X14.382 Y8.344 E13.66393
G1 X14.314 Y8.815 E13.71616
G1 X14.193 Y9.576 E13.80073
G1 X14.158 Y9.855 E13.83160
G1 X14.124 Y10.473 E13.89953
G1 X14.130 Y10.581 E13.91140
G1 X14.131 Y10.589 E13.91229
G1 X14.169 Y10.682 E13.92331
G1 X14.327 Y10.830 E13.94708
G1 X14.727 Y11.025 E13.99592
G1 X15.074 Y11.167 E14.03707
G1 X15.620 Y11.340 E14.09993
G1 X16.148 Y11.441 E14.15894
G1 X16.286 Y11.463 E14.17427
G1 X16.389 Y11.471 E14.18561
G1 X16.440 Y11.463 E14.19128
G1 X16.455 Y11.461 E14.19294
G1 X16.588 Y11.345 E14.21231
G1 X16.834 Y11.010 E14.25793
G1 X17.177 Y10.523 E14.32331
G1 X17.497 Y10.001 E14.39051
G1 X18.116 Y9.146 E14.50637
G1 X18.664 Y8.534 E14.59653
G1 X19.276 Y8.087 E14.67971
G1 X19.985 Y7.773 E14.76482
G1 X20.482 Y7.675 E14.82042
G1 X21.239 Y7.643 E14.90358
G1 X22.209 Y7.914 E15.01413
G1 X23.108 Y8.488 E15.13120
G1 X23.663 Y9.247 E15.23440
G1 X23.727 Y9.425 E15.25516
G1 X23.880 Y9.687 E15.28846
G1 X24.029 Y10.658 E15.39629
G1 X23.906 Y11.520 E15.49186
G1 X23.789 Y11.843 E15.52956
G1 X24.330 Y12.146 E15.59762
G1 X24.872 Y12.628 E15.67723
G1 X25.272 Y13.267 E15.75997
G1 X25.434 Y13.715 E15.81226
G1 X25.531 Y14.201 E15.86666
G1 X25.552 Y14.501 E15.89966
G1 X25.534 Y15.017 E15.95633
G1 X25.343 Y15.875 E16.05281
G1 X24.952 Y16.560 E16.13938
G1 X24.566 Y17.012 E16.20462
G1 X24.093 Y17.381 E16.27047
G1 X24.060 Y17.398 E16.27454
G1 X24.110 Y17.516 E16.28861
G1 X24.287 Y18.288 E16.37554
G1 X24.239 Y18.997 E16.45354
G1 X24.081 Y19.681 E16.53059
G1 X23.707 Y20.292 E16.60922
G1 X23.221 Y20.847 E16.69019
G1 X22.502 Y21.265 E16.78147
G1 X21.756 Y21.471 E16.86641
G1 X21.342 Y21.479 E16.91186
G1 X20.966 Y21.471 E16.95314
G1 X20.913 Y21.673 E16.97606
G1 X20.611 Y22.334 E17.05583
G1 X20.161 Y22.923 E17.13718
G1 X19.745 Y23.302 E17.19895
G1 X19.202 Y23.670 E17.27095
G1 X18.521 Y23.900 E17.34984
G1 X17.902 Y23.968 E17.41819
G1 X17.047 Y23.911 E17.51224
G1 X16.257 Y23.575 E17.60647
G1 X15.734 Y23.179 E17.67847
G1 X15.397 Y22.818 E17.73267
G1 X15.082 Y22.324 E17.79698
G1 X14.837 Y21.804 E17.86007
G1 X14.827 Y21.772 E17.86375
G1 X14.248 Y22.015 E17.93267
G1 X13.695 Y22.120 E17.99445
G1 X13.284 Y22.144 E18.03964
G1 X12.616 Y22.039 E18.11386
G1 X11.923 Y21.783 E18.19495
G1 X11.335 Y21.327 E18.27662
G1 X10.932 Y20.854 E18.34482
G1 X10.626 Y20.250 E18.41914
G1 X10.489 Y19.672 E18.48434
G1 X10.440 Y19.043 E18.55358
G1 X10.537 Y18.344 E18.63104
G1 X10.740 Y17.699 E18.70526
G1 X11.102 Y17.062 E18.78567
G1 X11.450 Y16.611 E18.84820
G1 X10.820 Y16.386 E18.92162
G1 X9.963 Y15.979 E19.02575
G1 X9.199 Y15.476 E19.12615
G1 X8.734 Y15.094 E19.19220
G1 X8.468 Y14.834 E19.23303
G1 X7.772 Y13.932 E19.35808
G1 X7.430 Y13.186 E19.44815
G1 X7.236 Y12.567 E19.51935
G1 X7.114 Y12.020 E19.58086
G1 X7.007 Y11.179 E19.67392
G1 X6.900 Y10.251 E19.77645
G1 X6.844 Y9.861 E19.81969
G1 X6.791 Y9.657 E19.84283
G1 X6.718 Y9.445 E19.86744
G1 X6.650 Y9.293 E19.88571
G1 X6.611 Y9.227 E19.89413
G1 X6.550 Y9.146 E19.90526
G1 X6.381 Y8.960 E19.93284
G1 X6.209 Y8.831 E19.95644
G1 X6.184 Y8.820 E19.95943
G1 X6.175 Y8.817 E19.96048
G1 X6.161 Y8.815 E19.96203
G1 X5.837 Y8.825 E19.99761
G1 X5.264 Y8.933 E20.06161
G1 X5.113 Y8.963 E20.07850
G1 X4.357 Y9.200 E20.16546
G1 X3.912 Y9.346 E20.21687
G1 X3.280 Y9.577 E20.29072
G1 X2.063 Y10.014 E20.43265
G1 X1.237 Y10.304 E20.52873
G1 X0.442 Y10.559 E20.62037
G1 X-0.472 Y10.848 E20.72559
G1 X-1.666 Y11.143 E20.86058
G1 X-2.405 Y11.321 E20.94401
G1 X-3.959 Y11.540 E21.11626
G1 X-4.351 Y11.597 E21.15974
G1 X-5.658 Y11.621 E21.30322
G1 X-6.459 Y11.632 E21.39114
G1 X-8.249 Y11.473 E21.58838
G1 X-9.370 Y11.287 E21.71310
G1 X-10.476 Y11.064 E21.83694
G1 X-12.381 Y10.500 E22.05500
G1 X-13.920 Y9.905 E22.23610
G1 X-14.617 Y9.604 E22.31943
G1 X-15.659 Y9.163 E22.44362
G1 X-15.660 Y9.165 E22.44387
G1 X-15.822 Y9.519 E22.48660
G1 X-16.036 Y10.050 E22.54943
G1 X-16.370 Y10.696 E22.62926
G1 X-16.608 Y11.171 E22.68757
G1 X-16.835 Y11.570 E22.73795
G1 X-17.412 Y12.300 E22.84008
G1 X-18.037 Y12.915 E22.93632
G1 X-18.477 Y13.257 E22.99749
G1 X-18.918 Y13.541 E23.05506
G1 X-19.616 Y13.889 E23.14067
G1 X-19.920 Y14.050 E23.17843
G1 X-20.584 Y14.270 E23.25520
G1 X-21.461 Y14.419 E23.35284
G1 X-22.180 Y14.467 E23.43193
G1 X-22.654 Y14.454 E23.48398
G1 X-22.773 Y14.443 E23.49709
G1 X-22.778 Y14.454 E23.49842
G1 X-22.934 Y14.954 E23.55591
G1 X-23.234 Y15.679 E23.64203
G1 X-23.580 Y16.255 E23.71578
G1 X-24.054 Y16.774 E23.79292
G1 X-24.547 Y17.125 E23.85935
G1 X-24.938 Y17.301 E23.90641
G1 X-25.470 Y17.475 E23.96784
G1 X-26.618 Y17.443 E24.09390
G1 X-27.528 Y16.885 E24.21106
G1 X-27.983 Y16.403 E24.28381
G1 X-28.339 Y15.696 E24.37069
G1 X-28.390 Y15.434 E24.39999
G1 X-28.968 Y15.423 E24.46344
G1 X-29.716 Y15.242 E24.54791
G1 X-30.455 Y14.772 E24.64404
G1 X-30.951 Y14.164 E24.73016
G1 X-31.339 Y13.316 E24.83251
G1 X-31.306 Y12.634 E24.90746
G1 X-31.233 Y12.130 E24.96335
G1 X-31.043 Y11.612 E25.02391
G1 X-30.703 Y11.044 E25.09657
G1 X-30.806 Y10.806 E25.12503
G1 X-30.862 Y10.025 E25.21097
G1 X-30.772 Y9.342 E25.28659
G1 X-30.245 Y8.453 E25.40002
G1 X-29.832 Y8.119 E25.45832
G1 X-29.852 Y8.064 E25.46474
G1 X-29.859 Y7.428 E25.53455
G1 X-29.772 Y6.860 E25.59762
G1 X-29.366 Y6.017 E25.70032
G1 X-28.724 Y5.492 E25.79134
G1 X-28.319 Y5.281 E25.84147
G1 X-27.802 Y5.123 E25.90080
G1 X-27.404 Y5.085 E25.94469
G1 X-26.819 Y5.112 E26.00896
G1 X-26.142 Y5.320 E26.08670
G1 X-25.644 Y5.616 E26.15028
G1 X-25.456 Y5.361 E26.18506
G1 X-25.013 Y4.959 E26.25072
G1 X-24.456 Y4.654 E26.32042
G1 X-23.534 Y4.460 E26.42383
G1 X-22.679 Y4.639 E26.51971
G1 X-21.955 Y5.002 E26.60860
G1 X-21.474 Y5.533 E26.68724
G1 X-21.208 Y5.932 E26.73987
G1 X-21.114 Y5.768 E26.76062
G1 X-20.980 Y5.434 E26.80012
G1 X-21.069 Y5.350 E26.81355
G1 X-21.229 Y5.227 E26.83570
G1 X-21.770 Y4.912 E26.90441
G1 X-22.294 Y4.599 E26.97141
G1 X-22.907 Y4.175 E27.05322
G1 X-23.309 Y3.882 E27.10781
G1 X-24.246 Y3.289 E27.22952
G1 X-24.709 Y2.983 E27.29044
G1 X-25.201 Y2.684 E27.35363
G1 X-25.835 Y2.281 E27.43608
G1 X-26.360 Y1.927 E27.50558
G1 X-27.028 Y1.386 E27.59993
G1 X-27.615 Y0.766 E27.69364
G1 X-28.167 Y-0.023 E27.79933
G1 X-28.535 Y-0.753 E27.88906
G1 X-28.739 Y-1.324 E27.95561
G1 X-28.873 Y-2.024 E28.03384
G1 X-28.901 Y-2.732 E28.11161
G1 X-28.765 Y-3.495 E28.19667
G1 X-28.454 Y-4.280 E28.28935
G1 X-28.064 Y-4.758 E28.35706
G1 X-27.834 Y-5.020 E28.39533
G1 X-27.336 Y-5.398 E28.46395
G1 X-26.861 Y-5.635 E28.52221
G1 X-26.183 Y-5.854 E28.60041
G1 X-25.483 Y-5.940 E28.67782
G1 X-25.128 Y-5.951 E28.71681
G1 X-24.381 Y-5.907 E28.79894
G1 X-23.603 Y-5.794 E28.88523
G1 X-22.779 Y-5.585 E28.97853
G1 X-22.131 Y-5.364 E29.05368
G1 X-21.535 Y-5.138 E29.12364
G1 X-21.019 Y-4.929 E29.18474
G1 X-20.431 Y-4.681 E29.25479
G1 X-20.371 Y-4.652 E29.26210
G1 X-20.250 Y-4.611 E29.27612
G1 X-19.502 Y-4.308 E29.36470
G1 X-18.928 Y-4.077 E29.43261
G1 X-18.465 Y-3.901 E29.48698
G1 X-18.007 Y-3.746 E29.54005
G1 X-17.982 Y-3.738 E29.54293
G1 X-17.707 Y-3.690 E29.57357
G1 X-17.660 Y-3.689 E29.57873
G1 X-17.467 Y-3.661 E29.60014
G1 X-17.271 Y-3.656 E29.62166
G1 X-17.122 Y-3.645 E29.63805
G1 X-16.856 Y-3.666 E29.66734
G1 X-16.772 Y-3.656 E29.67663
G1 X-16.733 Y-3.657 E29.68091
G1 X-16.663 Y-3.666 E29.68865
G1 X-16.379 Y-3.681 E29.71987
G1 X-16.310 Y-3.699 E29.72770
G1 X-16.179 Y-3.709 E29.74212
G1 X-15.905 Y-3.784 E29.77330
G1 X-15.842 Y-3.803 E29.78052
G1 X-15.638 Y-3.893 E29.80499
G1 X-15.607 Y-3.920 E29.80950
G1 X-15.541 Y-3.975 E29.81893
G1 X-15.380 Y-4.149 E29.84495
G1 X-15.244 Y-4.427 E29.87892
G1 X-15.224 Y-4.479 E29.88504
G1 X-15.178 Y-4.652 E29.90468
G1 X-15.162 Y-4.827 E29.92397
G1 X-15.185 Y-5.152 E29.95973
G1 X-15.269 Y-5.497 E29.99870
G1 X-15.433 Y-5.900 E30.04646
G1 X-15.565 Y-6.163 E30.07876
G1 X-15.687 Y-6.097 E30.09398
G1 X-16.164 Y-5.851 E30.15289
G1 X-16.771 Y-5.533 E30.22810
G1 X-17.482 Y-5.239 E30.31255
G1 X-18.185 Y-5.128 E30.39066
G1 X-18.787 Y-5.174 E30.45693
G1 X-19.347 Y-5.317 E30.52037
G1 X-20.036 Y-5.647 E30.60422
G1 X-20.578 Y-6.198 E30.68905
G1 X-20.885 Y-6.673 E30.75113
G1 X-21.073 Y-7.207 E30.81326
G1 X-21.164 Y-7.813 E30.88052
G1 X-21.079 Y-8.491 E30.95552
G1 X-21.479 Y-8.865 E31.01563
G1 X-21.966 Y-9.654 E31.11739
G1 X-22.094 Y-10.576 E31.21956
G1 X-22.043 Y-11.083 E31.27549
G1 X-21.815 Y-11.785 E31.35650
G1 X-21.366 Y-12.428 E31.44258
G1 X-20.851 Y-12.863 E31.51657
G1 X-20.332 Y-13.149 E31.58161
G1 X-19.848 Y-13.307 E31.63750
G1 X-19.707 Y-13.934 E31.70803
G1 X-19.266 Y-14.710 E31.80600
G1 X-18.653 Y-15.240 E31.89494
G1 X-18.222 Y-15.475 E31.94882
G1 X-17.617 Y-15.657 E32.01817
G1 X-16.901 Y-15.693 E32.09685
G1 X-16.411 Y-15.587 E32.15188
G1 X-16.276 Y-15.790 E32.17864
G1 X-15.761 Y-16.292 E32.25757
G1 X-14.991 Y-16.694 E32.35291
G1 X-14.397 Y-16.773 E32.41868
G1 X-13.815 Y-16.754 E32.48260
G1 X-13.100 Y-16.566 E32.56374
G1 X-12.258 Y-15.980 E32.67634
G1 X-11.748 Y-15.163 E32.78205
G1 X-11.734 Y-15.108 E32.78827
G1 X-11.704 Y-15.114 E32.79163
G1 X-10.882 Y-15.020 E32.88244
G1 X-10.304 Y-14.790 E32.95072
G1 X-9.813 Y-14.451 E33.01621
G1 X-9.412 Y-14.040 E33.07923
G1 X-9.039 Y-13.354 E33.16494
G1 X-8.846 Y-12.614 E33.24888
G1 X-8.913 Y-11.789 E33.33973
G1 X-9.188 Y-11.026 E33.42874
G1 X-9.714 Y-10.302 E33.52697
G1 X-9.977 Y-10.072 E33.56532
G1 X-9.387 Y-9.444 E33.65989
G1 X-9.073 Y-8.991 E33.72039
G1 X-8.748 Y-8.406 E33.79384
G1 X-8.443 Y-7.347 E33.91480
G1 X-8.441 Y-7.086 E33.94345
G1 X-8.431 Y-7.026 E33.95012
G1 X-8.420 Y-6.626 E33.99404
G1 X-8.445 Y-6.227 E34.03792
G1 X-8.442 Y-6.088 E34.05318
G1 X-8.541 Y-5.669 E34.10044
G1 X-8.597 Y-5.337 E34.13739
G1 X-8.657 Y-5.166 E34.15728
G1 X-8.679 Y-5.034 E34.17197
G1 X-8.861 Y-4.437 E34.24048
G1 X-8.861 Y-4.436 E34.24058
G1 X-8.868 Y-4.414 E34.24312
G1 X-8.981 Y-4.028 E34.28726
G1 X-9.068 Y-3.560 E34.33951
G1 X-9.119 Y-3.294 E34.36924
G1 X-8.980 Y-3.257 E34.38503
G1 X-8.741 Y-3.247 E34.41128
G1 X-8.104 Y-3.284 E34.48131
G1 X-4.959 Y-3.741 E34.83013
G1 X-4.266 Y-3.823 E34.90672
G1 X-4.091 Y-3.841 E34.92603
G1 X-3.108 Y-3.921 E35.03428
