;Generated with Cura_SteamEngine 15.01
; Default start code
;G28 ; Home extruder
;G92 X-100 Y-100
G1 Z2 F2000
;G92 Z0
M107 ; Turn off fan

G90 ; Absolute positioning
M82 ; Extruder in absolute mode
; Activate all used extruder
;M104 T0 S183
G92 E0 ; Reset extruder position
; Wait for all used extruders to reach temperature
;M109 T0 S183
m209 s1
;Layer count: 10
;LAYER:0
M107
G0 F10200 X19.598 Y19.598 Z0.300
;TYPE:SKIRT
G1 F1380 X-19.598 Y19.598 E1.79456
G1 X-19.598 Y-19.598 E3.58912
G1 X19.598 Y-19.598 E5.38368
G1 X19.598 Y19.598 E7.17824
G0 F10200 X19.199 Y19.199
G1 F1380 X-19.199 Y19.199 E8.93626
G1 X-19.199 Y-19.199 E10.69428
G1 X19.199 Y-19.199 E12.45231
G1 X19.199 Y19.199 E14.21033
G1 F1200 E9.21033
G0 F10200 X14.003 Y14.003
;TYPE:WALL-INNER
G1 F1200 E14.21033
G1 F1380 X-14.003 Y14.003 E15.49256
G1 X-14.003 Y-14.003 E16.77480
G1 X14.003 Y-14.003 E18.05703
G1 X14.003 Y14.003 E19.33926
G0 F10200 X14.402 Y14.402
G1 F1380 X-14.402 Y14.402 E20.65803
G1 X-14.402 Y-14.402 E21.97680
G1 X14.402 Y-14.402 E23.29557
G1 X14.402 Y14.402 E24.61434
G0 F10200 X14.801 Y14.801
;TYPE:WALL-OUTER
G1 F1380 X-14.801 Y14.801 E25.96964
G1 X-14.801 Y-14.801 E27.32495
G1 X14.801 Y-14.801 E28.68025
G1 X14.801 Y14.801 E30.03556
G0 F10200 X13.803 Y13.803
;LAYER:1
M106 S255
G0 X14.003 Y14.003 Z0.600
;TYPE:WALL-INNER
G1 F1500 X-14.003 Y14.003 E31.31779
G1 X-14.003 Y-14.003 E32.60003
G1 X14.003 Y-14.003 E33.88226
G1 X14.003 Y14.003 E35.16449
G0 F10200 X14.402 Y14.402
G1 F1500 X-14.402 Y14.402 E36.48326
G1 X-14.402 Y-14.402 E37.80203
G1 X14.402 Y-14.402 E39.12080
G1 X14.402 Y14.402 E40.43957
G0 F10200 X14.801 Y14.801
;TYPE:WALL-OUTER
G1 F1320 X-14.801 Y14.801 E41.79488
G1 X-14.801 Y-14.801 E43.15018
G1 X14.801 Y-14.801 E44.50549
G1 X14.801 Y14.801 E45.86079
G0 F10200 X13.803 Y13.803
;LAYER:2
G0 X14.003 Y14.003 Z0.900
;TYPE:WALL-INNER
G1 F1680 X-14.003 Y14.003 E47.14302
G1 X-14.003 Y-14.003 E48.42526
G1 X14.003 Y-14.003 E49.70749
G1 X14.003 Y14.003 E50.98972
G0 F10200 X14.402 Y14.402
G1 F1680 X-14.402 Y14.402 E52.30849
G1 X-14.402 Y-14.402 E53.62726
G1 X14.402 Y-14.402 E54.94603
G1 X14.402 Y14.402 E56.26480
G0 F10200 X14.801 Y14.801
;TYPE:WALL-OUTER
G1 F1320 X-14.801 Y14.801 E57.62011
G1 X-14.801 Y-14.801 E58.97541
G1 X14.801 Y-14.801 E60.33072
G1 X14.801 Y14.801 E61.68602
G0 F10200 X13.803 Y13.803
;LAYER:3
G0 X14.003 Y14.003 Z1.200
;TYPE:WALL-INNER
G1 F1800 X-14.003 Y14.003 E62.96825
G1 X-14.003 Y-14.003 E64.25049
G1 X14.003 Y-14.003 E65.53272
G1 X14.003 Y14.003 E66.81495
G0 F10200 X14.402 Y14.402
G1 F1800 X-14.402 Y14.402 E68.13372
G1 X-14.402 Y-14.402 E69.45249
G1 X14.402 Y-14.402 E70.77126
G1 X14.402 Y14.402 E72.09003
G0 F10200 X14.801 Y14.801
;TYPE:WALL-OUTER
G1 F1320 X-14.801 Y14.801 E73.44534
G1 X-14.801 Y-14.801 E74.80064
G1 X14.801 Y-14.801 E76.15595
G1 X14.801 Y14.801 E77.51125
G0 F10200 X13.803 Y13.803
;LAYER:4
G0 X14.003 Y14.003 Z1.500
;TYPE:WALL-INNER
G1 F2040 X-14.003 Y14.003 E78.79348
G1 X-14.003 Y-14.003 E80.07572
G1 X14.003 Y-14.003 E81.35795
G1 X14.003 Y14.003 E82.64018
G0 F10200 X14.402 Y14.402
G1 F2040 X-14.402 Y14.402 E83.95895
G1 X-14.402 Y-14.402 E85.27772
G1 X14.402 Y-14.402 E86.59649
G1 X14.402 Y14.402 E87.91526
G0 F10200 X14.801 Y14.801
;TYPE:WALL-OUTER
G1 F1380 X-14.801 Y14.801 E89.27057
G1 X-14.801 Y-14.801 E90.62587
G1 X14.801 Y-14.801 E91.98118
G1 X14.801 Y14.801 E93.33648
G0 F10200 X13.803 Y13.803
;LAYER:5
G0 X14.003 Y14.003 Z1.800
;TYPE:WALL-INNER
G1 F2040 X-14.003 Y14.003 E94.61872
G1 X-14.003 Y-14.003 E95.90095
G1 X14.003 Y-14.003 E97.18318
G1 X14.003 Y14.003 E98.46542
G0 F10200 X14.402 Y14.402
G1 F2040 X-14.402 Y14.402 E99.78418
G1 X-14.402 Y-14.402 E101.10295
G1 X14.402 Y-14.402 E102.42172
G1 X14.402 Y14.402 E103.74049
G0 F10200 X14.801 Y14.801
;TYPE:WALL-OUTER
G1 F1380 X-14.801 Y14.801 E105.09580
G1 X-14.801 Y-14.801 E106.45110
G1 X14.801 Y-14.801 E107.80641
G1 X14.801 Y14.801 E109.16171
G0 F10200 X13.803 Y13.803
;LAYER:6
G0 X14.003 Y14.003 Z2.100
;TYPE:WALL-INNER
G1 F2040 X-14.003 Y14.003 E110.44395
G1 X-14.003 Y-14.003 E111.72618
G1 X14.003 Y-14.003 E113.00841
G1 X14.003 Y14.003 E114.29065
G0 F10200 X14.402 Y14.402
G1 F2040 X-14.402 Y14.402 E115.60942
G1 X-14.402 Y-14.402 E116.92818
G1 X14.402 Y-14.402 E118.24695
G1 X14.402 Y14.402 E119.56572
G0 F10200 X14.801 Y14.801
;TYPE:WALL-OUTER
G1 F1380 X-14.801 Y14.801 E120.92103
G1 X-14.801 Y-14.801 E122.27633
G1 X14.801 Y-14.801 E123.63164
G1 X14.801 Y14.801 E124.98694
G0 F10200 X13.803 Y13.803
;LAYER:7
G0 X14.003 Y14.003 Z2.400
;TYPE:WALL-INNER
G1 F2040 X-14.003 Y14.003 E126.26918
G1 X-14.003 Y-14.003 E127.55141
G1 X14.003 Y-14.003 E128.83364
G1 X14.003 Y14.003 E130.11588
G0 F10200 X14.402 Y14.402
G1 F2040 X-14.402 Y14.402 E131.43465
G1 X-14.402 Y-14.402 E132.75342
G1 X14.402 Y-14.402 E134.07218
G1 X14.402 Y14.402 E135.39095
G0 F10200 X14.801 Y14.801
;TYPE:WALL-OUTER
G1 F1380 X-14.801 Y14.801 E136.74626
G1 X-14.801 Y-14.801 E138.10156
G1 X14.801 Y-14.801 E139.45687
G1 X14.801 Y14.801 E140.81217
G0 F10200 X13.803 Y13.803
;LAYER:8
G0 X14.003 Y14.003 Z2.700
;TYPE:WALL-INNER
G1 F2040 X-14.003 Y14.003 E142.09441
G1 X-14.003 Y-14.003 E143.37664
G1 X14.003 Y-14.003 E144.65887
G1 X14.003 Y14.003 E145.94111
G0 F10200 X14.402 Y14.402
G1 F2040 X-14.402 Y14.402 E147.25988
G1 X-14.402 Y-14.402 E148.57865
G1 X14.402 Y-14.402 E149.89742
G1 X14.402 Y14.402 E151.21618
G0 F10200 X14.801 Y14.801
;TYPE:WALL-OUTER
G1 F1380 X-14.801 Y14.801 E152.57149
G1 X-14.801 Y-14.801 E153.92679
G1 X14.801 Y-14.801 E155.28210
G1 X14.801 Y14.801 E156.63740
G0 F10200 X14.501 Y14.591
G0 X13.862 Y13.581
;TYPE:SKIN
G1 F1380 X-13.581 Y-13.862 E158.41430
G0 F10200 X-13.862 Y-13.579
G1 F1380 X13.579 Y13.862 E160.19107
G0 F10200 X13.015 Y13.862
G1 F1380 X-13.862 Y-13.015 E161.93132
G0 F10200 X-13.862 Y-12.451
G1 F1380 X12.451 Y13.862 E163.63505
G0 F10200 X11.887 Y13.862
G1 F1380 X-13.862 Y-11.887 E165.30227
G0 F10200 X-13.862 Y-11.322
G1 F1380 X11.322 Y13.862 E166.93290
G0 F10200 X10.758 Y13.862
G1 F1380 X-13.862 Y-10.758 E168.52701
G0 F10200 X-13.862 Y-10.194
G1 F1380 X10.194 Y13.862 E170.08461
G0 F10200 X9.630 Y13.862
G1 F1380 X-13.862 Y-9.630 E171.60568
G0 F10200 X-13.862 Y-9.065
G1 F1380 X9.065 Y13.862 E173.09018
G0 F10200 X8.501 Y13.862
G1 F1380 X-13.862 Y-8.501 E174.53815
G0 F10200 X-13.862 Y-7.937
G1 F1380 X7.937 Y13.862 E175.94961
G0 F10200 X7.373 Y13.862
G1 F1380 X-13.862 Y-7.373 E177.32455
G0 F10200 X-13.862 Y-6.808
G1 F1380 X6.808 Y13.862 E178.66290
G0 F10200 X6.244 Y13.862
G1 F1380 X-13.862 Y-6.244 E179.96474
G0 F10200 X-13.862 Y-5.680
G1 F1380 X5.680 Y13.862 E181.23006
G0 F10200 X5.115 Y13.862
G1 F1380 X-13.862 Y-5.115 E182.45879
G0 F10200 X-13.862 Y-4.551
G1 F1380 X4.551 Y13.862 E183.65101
G0 F10200 X3.987 Y13.862
G1 F1380 X-13.862 Y-3.987 E184.80671
G0 F10200 X-13.862 Y-3.423
G1 F1380 X3.423 Y13.862 E185.92589
G0 F10200 X2.858 Y13.862
G1 F1380 X-13.862 Y-2.858 E187.00849
G0 F10200 X-13.862 Y-2.294
G1 F1380 X2.294 Y13.862 E188.05457
G0 F10200 X1.730 Y13.862
G1 F1380 X-13.862 Y-1.730 E189.06413
G0 F10200 X-13.862 Y-1.166
G1 F1380 X1.166 Y13.862 E190.03718
G0 F10200 X0.601 Y13.862
G1 F1380 X-13.862 Y-0.601 E190.97364
G0 F10200 X-13.862 Y-0.037
G1 F1380 X0.037 Y13.862 E191.87358
G0 F10200 X-0.526 Y13.862
G1 F1380 X-13.862 Y0.526 E192.73707
G0 F10200 X-13.862 Y1.091
G1 F1380 X-1.091 Y13.862 E193.56397
G0 F10200 X-1.655 Y13.862
G1 F1380 X-13.862 Y1.655 E194.35436
G0 F10200 X-13.862 Y2.219
G1 F1380 X-2.219 Y13.862 E195.10823
G0 F10200 X-2.783 Y13.862
G1 F1380 X-13.862 Y2.783 E195.82558
G0 F10200 X-13.862 Y3.348
G1 F1380 X-3.348 Y13.862 E196.50635
G0 F10200 X-3.912 Y13.862
G1 F1380 X-13.862 Y3.912 E197.15060
G0 F10200 X-13.862 Y4.476
G1 F1380 X-4.476 Y13.862 E197.75833
G0 F10200 X-5.040 Y13.862
G1 F1380 X-13.862 Y5.040 E198.32954
G0 F10200 X-13.862 Y5.605
G1 F1380 X-5.605 Y13.862 E198.86417
G0 F10200 X-6.169 Y13.862
G1 F1380 X-13.862 Y6.169 E199.36228
G0 F10200 X-13.862 Y6.733
G1 F1380 X-6.733 Y13.862 E199.82388
G0 F10200 X-7.298 Y13.862
G1 F1380 X-13.862 Y7.298 E200.24889
G0 F10200 X-13.862 Y7.862
G1 F1380 X-7.862 Y13.862 E200.63738
G0 F10200 X-8.426 Y13.862
G1 F1380 X-13.862 Y8.426 E200.98935
G0 F10200 X-13.862 Y8.990
G1 F1380 X-8.990 Y13.862 E201.30481
G0 F10200 X-9.555 Y13.862
G1 F1380 X-13.862 Y9.555 E201.58368
G0 F10200 X-13.862 Y10.119
G1 F1380 X-10.119 Y13.862 E201.82603
G0 F10200 X-10.683 Y13.862
G1 F1380 X-13.862 Y10.683 E202.03187
G0 F10200 X-13.862 Y11.247
G1 F1380 X-11.247 Y13.862 E202.20119
G0 F10200 X-11.812 Y13.862
G1 F1380 X-13.862 Y11.812 E202.33392
G0 F10200 X-13.862 Y12.376
G1 F1380 X-12.376 Y13.862 E202.43014
G0 F10200 X-12.940 Y13.862
G1 F1380 X-13.862 Y12.940 E202.48984
G0 F10200 X-13.862 Y13.505
G1 F1380 X-13.505 Y13.862 E202.51295
G0 F10200 X13.862 Y13.017
G1 F1380 X-13.017 Y-13.862 E204.25333
G0 F10200 X-12.452 Y-13.862
G1 F1380 X13.862 Y12.452 E205.95713
G0 F10200 X13.862 Y11.888
G1 F1380 X-11.888 Y-13.862 E207.62441
G0 F10200 X-11.324 Y-13.862
G1 F1380 X13.862 Y11.324 E209.25517
G0 F10200 X13.862 Y10.760
G1 F1380 X-10.760 Y-13.862 E210.84941
G0 F10200 X-10.195 Y-13.862
G1 F1380 X13.862 Y10.195 E212.40707
G0 F10200 X13.862 Y9.631
G1 F1380 X-9.631 Y-13.862 E213.92821
G0 F10200 X-9.067 Y-13.862
G1 F1380 X13.862 Y9.067 E215.41283
G0 F10200 X13.862 Y8.502
G1 F1380 X-8.502 Y-13.862 E216.86087
G0 F10200 X-7.938 Y-13.862
G1 F1380 X13.862 Y7.938 E218.27240
G0 F10200 X13.862 Y7.374
G1 F1380 X-7.374 Y-13.862 E219.64740
G0 F10200 X-6.810 Y-13.862
G1 F1380 X13.862 Y6.810 E220.98588
G0 F10200 X13.862 Y6.245
G1 F1380 X-6.245 Y-13.862 E222.28779
G0 F10200 X-5.681 Y-13.862
G1 F1380 X13.862 Y5.681 E223.55317
G0 F10200 X13.862 Y5.117
G1 F1380 X-5.117 Y-13.862 E224.78204
G0 F10200 X-4.553 Y-13.862
G1 F1380 X13.862 Y4.553 E225.97438
G0 F10200 X13.862 Y3.988
G1 F1380 X-3.988 Y-13.862 E227.13015
G0 F10200 X-3.424 Y-13.862
G1 F1380 X13.862 Y3.424 E228.24939
G0 F10200 X13.862 Y2.860
G1 F1380 X-2.860 Y-13.862 E229.33212
G0 F10200 X-2.295 Y-13.862
G1 F1380 X13.862 Y2.295 E230.37826
G0 F10200 X13.862 Y1.731
G1 F1380 X-1.731 Y-13.862 E231.38789
G0 F10200 X-1.167 Y-13.862
G1 F1380 X13.862 Y1.167 E232.36100
G0 F10200 X13.862 Y0.603
G1 F1380 X-0.603 Y-13.862 E233.29759
G0 F10200 X-0.038 Y-13.862
G1 F1380 X13.862 Y0.038 E234.19760
G0 F10200 X13.862 Y-0.525
G1 F1380 X0.525 Y-13.862 E235.06115
G0 F10200 X1.089 Y-13.862
G1 F1380 X13.862 Y-1.089 E235.88818
G0 F10200 X13.862 Y-1.653
G1 F1380 X1.653 Y-13.862 E236.67870
G0 F10200 X2.218 Y-13.862
G1 F1380 X13.862 Y-2.218 E237.43263
G0 F10200 X13.862 Y-2.782
G1 F1380 X2.782 Y-13.862 E238.15005
G0 F10200 X3.346 Y-13.862
G1 F1380 X13.862 Y-3.346 E238.83095
G0 F10200 X13.862 Y-3.911
G1 F1380 X3.911 Y-13.862 E239.47526
G0 F10200 X4.475 Y-13.862
G1 F1380 X13.862 Y-4.475 E240.08306
G0 F10200 X13.862 Y-5.039
G1 F1380 X5.039 Y-13.862 E240.65434
G0 F10200 X5.603 Y-13.862
G1 F1380 X13.862 Y-5.603 E241.18909
G0 F10200 X13.862 Y-6.168
G1 F1380 X6.168 Y-13.862 E241.68727
G0 F10200 X6.732 Y-13.862
G1 F1380 X13.862 Y-6.732 E242.14893
G0 F10200 X13.862 Y-7.296
G1 F1380 X7.296 Y-13.862 E242.57407
G0 F10200 X7.860 Y-13.862
G1 F1380 X13.862 Y-7.860 E242.96269
G0 F10200 X13.862 Y-8.425
G1 F1380 X8.425 Y-13.862 E243.31473
G0 F10200 X8.989 Y-13.862
G1 F1380 X13.862 Y-8.989 E243.63025
G0 F10200 X13.862 Y-9.553
G1 F1380 X9.553 Y-13.862 E243.90925
G0 F10200 X10.117 Y-13.862
G1 F1380 X13.862 Y-10.117 E244.15174
G0 F10200 X13.862 Y-10.682
G1 F1380 X10.682 Y-13.862 E244.35764
G0 F10200 X11.246 Y-13.862
G1 F1380 X13.862 Y-11.246 E244.52702
G0 F10200 X13.862 Y-11.810
G1 F1380 X11.810 Y-13.862 E244.65988
G0 F10200 X12.375 Y-13.862
G1 F1380 X13.862 Y-12.375 E244.75616
G0 F10200 X13.862 Y-12.939
G1 F1380 X12.939 Y-13.862 E244.81593
G0 F10200 X13.503 Y-13.862
G1 F1380 X13.862 Y-13.503 E244.83917
;LAYER:9
G0 F10200 X14.003 Y-14.003 Z3.000
;TYPE:WALL-INNER
G1 F2040 X14.003 Y14.003 E246.12141
G1 X-14.003 Y14.003 E247.40364
G1 X-14.003 Y-14.003 E248.68587
G1 X14.003 Y-14.003 E249.96811
G0 F10200 X14.402 Y-14.402
G1 F2040 X14.402 Y14.402 E251.28688
G1 X-14.402 Y14.402 E252.60564
G1 X-14.402 Y-14.402 E253.92441
G1 X14.402 Y-14.402 E255.24318
G0 F10200 X14.801 Y-14.801
;TYPE:WALL-OUTER
G1 F1380 X14.801 Y14.801 E256.59849
G1 X-14.801 Y14.801 E257.95379
G1 X-14.801 Y-14.801 E259.30910
G1 X14.801 Y-14.801 E260.66440
G0 F10200 X14.501 Y-14.591
G0 X13.581 Y-13.862
;TYPE:SKIN
G1 F1380 X-13.862 Y13.581 E262.44130
G0 F10200 X-13.579 Y13.862
G1 F1380 X13.862 Y-13.579 E264.21807
G0 F10200 X13.862 Y-13.015
G1 F1380 X-13.015 Y13.862 E265.95832
G0 F10200 X-12.451 Y13.862
G1 F1380 X13.862 Y-12.451 E267.66205
G0 F10200 X13.862 Y-11.887
G1 F1380 X-11.887 Y13.862 E269.32927
G0 F10200 X-11.322 Y13.862
G1 F1380 X13.862 Y-11.322 E270.95990
G0 F10200 X13.862 Y-10.758
G1 F1380 X-10.758 Y13.862 E272.55401
G0 F10200 X-10.194 Y13.862
G1 F1380 X13.862 Y-10.194 E274.11161
G0 F10200 X13.862 Y-9.630
G1 F1380 X-9.630 Y13.862 E275.63268
G0 F10200 X-9.065 Y13.862
G1 F1380 X13.862 Y-9.065 E277.11718
G0 F10200 X13.862 Y-8.501
G1 F1380 X-8.501 Y13.862 E278.56515
G0 F10200 X-7.937 Y13.862
G1 F1380 X13.862 Y-7.937 E279.97661
G0 F10200 X13.862 Y-7.373
G1 F1380 X-7.373 Y13.862 E281.35155
G0 F10200 X-6.808 Y13.862
G1 F1380 X13.862 Y-6.808 E282.68990
G0 F10200 X13.862 Y-6.244
G1 F1380 X-6.244 Y13.862 E283.99174
G0 F10200 X-5.680 Y13.862
G1 F1380 X13.862 Y-5.680 E285.25706
G0 F10200 X13.862 Y-5.115
G1 F1380 X-5.115 Y13.862 E286.48579
G0 F10200 X-4.551 Y13.862
G1 F1380 X13.862 Y-4.551 E287.67801
G0 F10200 X13.862 Y-3.987
G1 F1380 X-3.987 Y13.862 E288.83371
G0 F10200 X-3.423 Y13.862
G1 F1380 X13.862 Y-3.423 E289.95289
G0 F10200 X13.862 Y-2.858
G1 F1380 X-2.858 Y13.862 E291.03549
G0 F10200 X-2.294 Y13.862
G1 F1380 X13.862 Y-2.294 E292.08157
G0 F10200 X13.862 Y-1.730
G1 F1380 X-1.730 Y13.862 E293.09113
G0 F10200 X-1.166 Y13.862
G1 F1380 X13.862 Y-1.166 E294.06417
G0 F10200 X13.862 Y-0.601
G1 F1380 X-0.601 Y13.862 E295.00063
G0 F10200 X-0.037 Y13.862
G1 F1380 X13.862 Y-0.037 E295.90058
G0 F10200 X13.862 Y0.526
G1 F1380 X0.526 Y13.862 E296.76407
G0 F10200 X1.091 Y13.862
G1 F1380 X13.862 Y1.091 E297.59097
G0 F10200 X13.862 Y1.655
G1 F1380 X1.655 Y13.862 E298.38136
G0 F10200 X2.219 Y13.862
G1 F1380 X13.862 Y2.219 E299.13523
G0 F10200 X13.862 Y2.783
G1 F1380 X2.783 Y13.862 E299.85258
G0 F10200 X3.348 Y13.862
G1 F1380 X13.862 Y3.348 E300.53335
G0 F10200 X13.862 Y3.912
G1 F1380 X3.912 Y13.862 E301.17759
G0 F10200 X4.476 Y13.862
G1 F1380 X13.862 Y4.476 E301.78533
G0 F10200 X13.862 Y5.040
G1 F1380 X5.040 Y13.862 E302.35654
G0 F10200 X5.605 Y13.862
G1 F1380 X13.862 Y5.605 E302.89117
G0 F10200 X13.862 Y6.169
G1 F1380 X6.169 Y13.862 E303.38928
G0 F10200 X6.733 Y13.862
G1 F1380 X13.862 Y6.733 E303.85087
G0 F10200 X13.862 Y7.298
G1 F1380 X7.298 Y13.862 E304.27588
G0 F10200 X7.862 Y13.862
G1 F1380 X13.862 Y7.862 E304.66438
G0 F10200 X13.862 Y8.426
G1 F1380 X8.426 Y13.862 E305.01635
G0 F10200 X8.990 Y13.862
G1 F1380 X13.862 Y8.990 E305.33181
G0 F10200 X13.862 Y9.555
G1 F1380 X9.555 Y13.862 E305.61068
G0 F10200 X10.119 Y13.862
G1 F1380 X13.862 Y10.119 E305.85303
G0 F10200 X13.862 Y10.683
G1 F1380 X10.683 Y13.862 E306.05887
G0 F10200 X11.247 Y13.862
G1 F1380 X13.862 Y11.247 E306.22819
G0 F10200 X13.862 Y11.812
G1 F1380 X11.812 Y13.862 E306.36092
G0 F10200 X12.376 Y13.862
G1 F1380 X13.862 Y12.376 E306.45714
G0 F10200 X13.862 Y12.940
G1 F1380 X12.940 Y13.862 E306.51684
G0 F10200 X13.505 Y13.862
G1 F1380 X13.862 Y13.505 E306.53995
G0 F10200 X13.017 Y-13.862
G1 F1380 X-13.862 Y13.017 E308.28033
G0 F10200 X-13.862 Y12.452
G1 F1380 X12.452 Y-13.862 E309.98413
G0 F10200 X11.888 Y-13.862
G1 F1380 X-13.862 Y11.888 E311.65141
G0 F10200 X-13.862 Y11.324
G1 F1380 X11.324 Y-13.862 E313.28217
G0 F10200 X10.760 Y-13.862
G1 F1380 X-13.862 Y10.760 E314.87641
G0 F10200 X-13.862 Y10.195
G1 F1380 X10.195 Y-13.862 E316.43407
G0 F10200 X9.631 Y-13.862
G1 F1380 X-13.862 Y9.631 E317.95521
G0 F10200 X-13.862 Y9.067
G1 F1380 X9.067 Y-13.862 E319.43983
G0 F10200 X8.502 Y-13.862
G1 F1380 X-13.862 Y8.502 E320.88787
G0 F10200 X-13.862 Y7.938
G1 F1380 X7.938 Y-13.862 E322.29940
G0 F10200 X7.374 Y-13.862
G1 F1380 X-13.862 Y7.374 E323.67440
G0 F10200 X-13.862 Y6.810
